!!!!SEGMENT: pl-wtm--r-1540--001_stefani-jozef--missa-kyrie.krn
!!!cenid: 18xx:1769
!!!COM: Stefani, Józef
!!!COM-rismID: pe30024097
!!!CDT: 1800/04/16-1876/03/19
!!!CNT: Polish
!!!OPR: Missa
!!!OTL: Kyrie
!!!OMV: 001
!!!PDT:
!!!AGN: Sacred; Mass
!!!SMS-siglum: PL-Wtm
!!!SMS-shelfmark: R 1540
!!!SMS-shelfwork: 001-001 M
!!!SMS-variant:
!!!SMS-altvar:
!!!NIFC-rismSourceID: 1001120486
!!!NIFC-islandoraID: pl-wtm:26331
!!!URL-pdf-islandora: https://repozytorium.nifc.pl/islandora/object/pl-wtm%3A26331/datastream/PDF/view
!!!URL-scan: https://polish.musicsources.pl/pl/lokalizacje/galeria/rekopisy/6341 @EN{Scan on Polish Music Sources Website} @PL{Skany w portalu Dziedzictwo Muzyki Polskiej w otwartym dostępie}
!!!ONB-nifc: UWAGA: części Mszy: 1. Kyrie, 2. Gloria, 3. Graduale, 4. Credo, 5. Offertorium, 6. Sanctus, 7. Benedictus, 8. Agnus Dei. Na końcu rękopisu parte puzonów, trąbek i kotłów
!!!AIN: 1 bass 1 clars 1 cor 5 empty 1 fagot 1 flt 1 oboe 1 organ 2 soprn 1 timpa 1 tromp 1 tromt 1 viola
!!!key:
**kern	**kern	**kern	**kern	**kern	**kern	**text	**dynam	**kern	**text	**dynam	**kern	**text	**dynam	**kern	**text	**dynam	**kern	**text	**dynam	**kern	**dynam	**kern	**dynam	**kern	**dynam	**kern	**dynam	**kern	**dynam	**kern	**dynam	**kern	**dynam	**kern	**dynam	**kern	**dynam
*	*	*	*	*	*	*	*	*gruop2	*	*	*group2	*	*	*	*	*	*	*	*	*	*	*	*	*group1	*	*group1	*	*	*	*	*	*	*	*	*	*	*
*	*	*	*	*	*	*	*	*I""Tenori	*	*	*I""Tenori	*	*	*	*	*	*	*	*	*	*	*	*	*I""Violini	*	*I""Violini	*	*	*	*	*	*	*	*	*	*	*
*part18	*part17	*part16	*part15	*part15	*part14	*part14	*part14	*part13	*part13	*part13	*part12	*part12	*part12	*part11	*part11	*part11	*part10	*part10	*part10	*part9	*part9	*part8	*part8	*part7	*part7	*part6	*part6	*part5	*part5	*part4	*part4	*part3	*part3	*part2	*part2	*part1	*part1
*staff19	*staff18	*staff17	*staff16	*staff15	*staff14	*staff14	*	*staff13	*staff13	*	*staff12	*staff12	*	*staff11	*staff11	*	*staff10	*staff10	*	*staff9	*	*staff8	*	*staff7	*	*staff6	*	*staff5	*	*staff4	*	*staff3	*	*staff2	*	*staff1	*
*Itimpa	*Itromt	*Itromp	*Iorgan	*Iempty	*Ibass	*	*	*Iempty	*	*	*Iempty	*	*	*Isoprn	*	*	*Isoprn	*	*	*Iempty	*	*Iviola	*	*Iempty	*	*Iempty	*	*Ifagot	*	*Icor	*	*Iclars	*	*Ioboe	*	*Iflt	*
*I"Timpani C.G.	*I"Trombone	*I"Trombe in C	*I"Organo.	*	*I"Basso	*	*	*	*	*	*	*	*	*I"2do Soprano	*	*	*I"1o. Soprano	*	*	*I"Baſsi	*	*I"Viole	*	*	*	*	*	*I"Fagoto	*	*I"Corni in C	*	*I"Clarinetti in C	*	*I"Oboe	*	*I"Flauto	*
*I'timp	*I'trne	*I'tr	*I'org	*	*I'B	*	*	*I'T 2	*	*	*I'T 1	*	*	*I'S 2	*	*	*I'S 1	*	*	*I'b	*	*I'vla	*	*I'vn	*	*I'vn	*	*I'fag	*	*I'cor	*	*I'cl	*	*I'ob	*	*I'fl	*
*clefF4	*clefF4	*clefG2	*clefF4	*clefG2	*clefF4	*	*	*clefC4	*	*	*clefC4	*	*	*clefG2	*	*	*clefG2	*	*	*clefF4	*	*clefC3	*	*clefG2	*	*clefG2	*	*clefF4	*	*clefG2	*	*clefG2	*	*clefG2	*	*clefG2	*
*k[f#]	*k[f#]	*k[f#]	*k[f#]	*k[f#]	*k[f#]	*	*	*k[f#]	*	*	*k[f#]	*	*	*k[f#]	*	*	*k[f#]	*	*	*k[f#]	*	*k[f#]	*	*k[f#]	*	*k[f#]	*	*k[f#]	*	*k[f#]	*	*k[f#]	*	*k[f#]	*	*k[f#]	*
*G:	*G:	*G:	*G:	*G:	*G:	*	*	*G:	*	*	*G:	*	*	*G:	*	*	*G:	*	*	*G:	*	*G:	*	*G:	*	*G:	*	*G:	*	*G:	*	*G:	*	*G:	*	*G:	*
*M3/4	*M3/4	*M3/4	*M3/4	*M3/4	*M3/4	*	*	*M3/4	*	*	*M3/4	*	*	*M3/4	*	*	*M3/4	*	*	*M3/4	*	*M3/4	*	*M3/4	*	*M3/4	*	*M3/4	*	*M3/4	*	*M3/4	*	*M3/4	*	*M3/4	*
=1	=1	=1	=1	=1	=1	=1	=1	=1	=1	=1	=1	=1	=1	=1	=1	=1	=1	=1	=1	=1	=1	=1	=1	=1	=1	=1	=1	=1	=1	=1	=1	=1	=1	=1	=1	=1	=1
*	*	*	*	*^	*	*	*	*	*	*	*	*	*	*	*	*	*	*	*	*	*	*	*	*	*	*	*	*	*	*	*	*	*	*	*	*	*
*	*	*	*	*	*2\right	*	*	*	*	*	*	*	*	*	*	*	*	*	*	*	*2\right	*	*2\right	*	*	*	*	*	*	*	*	*	*	*	*	*	*	*
!	!	!	!	!LO:TX:b=2:t=Trombe Trombone i Timpani, na końcu partycy	!	!	!	!	!	!	!	!	!	!	!	!	!	!	!	!	!	!	!	!	!	!	!	!	!	!	!	!	!	!	!	!	!	!
!LO:TX:a:t=tacet	!LO:TX:a:t=tacet	!LO:TX:a:t=tacet	!	!	!	!	!	!	!	!	!	!	!	!	!	!	!	!	!	!	!	!	!	!	!	!	!	!	!	!	!	!	!	!	!	!	!LO:TX:a:t=Andante.	!
2.ryy	2.ryy	2.ryy	4DD/ 4D	4f#/ 4dd	2.d\	2.r	.	.	2.r	.	.	2.r	.	.	2.r	.	.	2.r	.	.	4D\	.	[2.d\	.	4f#/	.	(4dd\	.	2.ryy	.	2.ryy	.	2.ryy	.	2.ryy	.	2.ryy	.
.	.	.	2FF#/ 2F#	(4a/	.	.	.	.	.	.	.	.	.	.	.	.	.	.	.	.	2F#\	.	.	.	2a/	.	4a/	.	.	.	.	.	.	.	.	.	.	.
.	.	.	.	[4cc/	.	.	.	.	.	.	.	.	.	.	.	.	.	.	.	.	.	.	.	.	.	.	4cc\	.	.	.	.	.	.	.	.	.	.	.
=2	=2	=2	=2	=2	=2	=2	=2	=2	=2	=2	=2	=2	=2	=2	=2	=2	=2	=2	=2	=2	=2	=2	=2	=2	=2	=2	=2	=2	=2	=2	=2	=2	=2	=2	=2	=2	=2	=2
*	*	*	*2\right	*	*	*	*	*	*	*	*	*	*	*	*	*	*	*	*	*	*	*	*	*	*	*	*	*	*	*	*	*	*	*	*	*	*	*
2.ryy	2.ryy	2.ryy	2.GG\ 2.G	4cc/]	2.d\ 2.a	2.r	.	.	2.r	.	.	2.r	.	.	2.r	.	.	2.r	.	.	2G\	.	2.d\]	.	2.g/	.	4cc\	.	2.ryy	.	2.ryy	.	2.ryy	.	2.ryy	.	2.ryy	.
.	.	.	.	8b/L	.	.	.	.	.	.	.	.	.	.	.	.	.	.	.	.	.	.	.	.	.	.	8b/L	.	.	.	.	.	.	.	.	.	.	.
.	.	.	.	8a/J	.	.	.	.	.	.	.	.	.	.	.	.	.	.	.	.	.	.	.	.	.	.	8a/J	.	.	.	.	.	.	.	.	.	.	.
.	.	.	.	4b/)	.	.	.	.	.	.	.	.	.	.	.	.	.	.	.	.	4GG/	.	.	.	.	.	4b/)	.	.	.	.	.	.	.	.	.	.	.
=3	=3	=3	=3	=3	=3	=3	=3	=3	=3	=3	=3	=3	=3	=3	=3	=3	=3	=3	=3	=3	=3	=3	=3	=3	=3	=3	=3	=3	=3	=3	=3	=3	=3	=3	=3	=3	=3	=3
2.ryy	2.ryy	2.ryy	4.C/	4.a/	[2.e\	2.r	.	.	2.r	.	.	2.r	.	.	2.r	.	.	2.r	.	.	4.C/	.	4.c/	.	[2.e/	.	4.a/	.	2.ryy	.	2.ryy	.	2.ryy	.	2.ryy	.	2.ryy	.
.	.	.	8D/L	8g#X/L	.	.	.	.	.	.	.	.	.	.	.	.	.	.	.	.	8D/L	.	(8d/L	.	.	.	(8g#X/L	.	.	.	.	.	.	.	.	.	.	.
.	.	.	8C/	8a/	.	.	.	.	.	.	.	.	.	.	.	.	.	.	.	.	8C/	.	8c/	.	.	.	8a/	.	.	.	.	.	.	.	.	.	.	.
.	.	.	8GG#X/J	8b/J	.	.	.	.	.	.	.	.	.	.	.	.	.	.	.	.	8GG#X/J	.	8G#X/J)	.	.	.	8b/J)	.	.	.	.	.	.	.	.	.	.	.
=4	=4	=4	=4	=4	=4	=4	=4	=4	=4	=4	=4	=4	=4	=4	=4	=4	=4	=4	=4	=4	=4	=4	=4	=4	=4	=4	=4	=4	=4	=4	=4	=4	=4	=4	=4	=4	=4	=4
2.ryy	2.ryy	2.ryy	4.AA/	4.cc/	2.e\]	2.r	.	.	2.r	.	.	2.r	.	.	2.r	.	.	2.r	.	.	4.AA/	.	4.A/	.	2e/]	.	(4.cc\	.	2.ryy	.	2.ryy	.	2.ryy	.	2.ryy	.	2.ryy	.
.	.	.	8GG#X/L	8b/L	.	.	.	.	.	.	.	.	.	.	.	.	.	.	.	.	(8GG#X/L	.	(8G#X/L	.	.	.	8b\L	.	.	.	.	.	.	.	.	.	.	.
.	.	.	8AA/	8a/ 8cc	.	.	.	.	.	.	.	.	.	.	.	.	.	.	.	.	8AA/	.	8A/	.	8a/L	.	8cc\	.	.	.	.	.	.	.	.	.	.	.
.	.	.	8BB/J	8g#X/J 8dd	.	.	.	.	.	.	.	.	.	.	.	.	.	.	.	.	8BB/J)	.	8B/J)	.	8g#X/J	.	8dd\J	.	.	.	.	.	.	.	.	.	.	.
!!LO:PB:g=original
=5	=5	=5	=5	=5	=5	=5	=5	=5	=5	=5	=5	=5	=5	=5	=5	=5	=5	=5	=5	=5	=5	=5	=5	=5	=5	=5	=5	=5	=5	=5	=5	=5	=5	=5	=5	=5	=5	=5
*	*	*	*	*	*	*	*	*	*	*	*	*	*	*	*	*	*	*	*	*	*	*	*	*	*	*	*2\right	*	*	*	*	*	*	*	*	*	*	*
*	*	*	*	*	*	*	*	*	*	*	*	*	*	*	*	*	*	*	*	*	*	*	*	*	*	*	*	*	*	*	*^	*	*^	*	*	*	*	*
2.ryy	2.ryy	2.ryy	2C/	2a/ 2ee	2.e\	2.r	.	.	2.r	.	.	2.r	.	.	2.r	.	.	2.r	.	.	2C/	.	2c\	.	2a/	.	2ee\)	.	4r	.	4r	4ryy	.	4r	4ryy	.	4r	.	4r	.
.	.	.	.	.	.	.	.	.	.	.	.	.	.	.	.	.	.	.	.	.	.	.	.	.	.	.	.	.	4r	.	4r	4ryy	.	4r	4ryy	.	4r	.	4r	.
.	.	.	4C#X/	4g/ 4a#X	.	.	.	.	.	.	.	.	.	.	.	.	.	.	.	.	4C#X^/	.	4e^<\	.	4g/	.	4a#X^<\	.	4C#X/	.	4ee/	4cc#X\	.	4ee/	4a#X\	.	(4gg^\	.	(4aa#X\	.
*	*	*	*	*v	*v	*	*	*	*	*	*	*	*	*	*	*	*	*	*	*	*	*	*	*	*	*	*	*	*	*	*	*	*	*	*	*	*	*	*	*
=6	=6	=6	=6	=6	=6	=6	=6	=6	=6	=6	=6	=6	=6	=6	=6	=6	=6	=6	=6	=6	=6	=6	=6	=6	=6	=6	=6	=6	=6	=6	=6	=6	=6	=6	=6	=6	=6	=6	=6
*	*	*	*	*	*	*	*	*	*	*	*	*	*	*	*	*	*	*	*	*	*	*	*	*	*	*	*	*2\right	*	*	*2\right	*	*	*2\right	*	*2\right	*	*	*
2.ryy	2.ryy	2.ryy	4D\	4d/ 4g 4b	2.r	.	.	2.r	.	.	2.r	.	.	2.r	.	.	2.r	.	.	4D\	.	2.d\	.	(2g/	.	(4b\	.	2.D\	.	[2.dd/	2.dd\	.	4dd/	2.b\	.	2gg\)	.	4bb\)	.
.	.	.	4B\	4g/ 4dd	.	.	.	.	.	.	.	.	.	.	.	.	.	.	.	4B\	.	.	.	.	.	4dd\	.	.	.	.	.	.	(4dd/	.	.	.	.	(4ddd\	.
.	.	.	4G\	(4b\ 4dd 4gg	.	.	.	.	.	.	.	.	.	.	.	.	.	.	.	4G\	.	.	.	4b\	.	4gg\	.	.	.	.	.	.	4gg/	.	.	4bb\	.	4ggg\	.
=7	=7	=7	=7	=7	=7	=7	=7	=7	=7	=7	=7	=7	=7	=7	=7	=7	=7	=7	=7	=7	=7	=7	=7	=7	=7	=7	=7	=7	=7	=7	=7	=7	=7	=7	=7	=7	=7	=7	=7
*	*	*	*	*^	*	*	*	*	*	*	*	*	*	*	*	*	*	*	*	*	*	*^	*	*	*	*	*	*	*	*	*	*	*	*	*	*	*	*	*
2.ryy	2.ryy	2.ryy	2D\	4gg/	2a\ 2cc	2.r	.	.	2.r	.	.	2.r	.	.	2.r	.	.	2.r	.	.	2D\	.	2d/	2c\	.	2a/	.	4gg\	.	2D\	.	2.dd/]	2.dd\	.	4gg/	2.cc\	.	2.aa\	.	4ggg\	.
.	.	.	.	8ff#/L	.	.	.	.	.	.	.	.	.	.	.	.	.	.	.	.	.	.	.	.	.	.	.	8ff#\L	.	.	.	.	.	.	8ff#/L	.	.	.	.	8fff#\L	.
.	.	.	.	8ee/J	.	.	.	.	.	.	.	.	.	.	.	.	.	.	.	.	.	.	.	.	.	.	.	8ee\J	.	.	.	.	.	.	8ee/J	.	.	.	.	8eee\J	.
.	.	.	4D\ 4A 4c	4ff#/	4a\ 4dd	.	.	.	.	.	.	.	.	.	.	.	.	.	.	.	4D\	.	4d/	4c\	.	4a/)	.	4ff#\)	.	4D\	.	.	.	.	4ff#/	.	.	.	.	4fff#\)	.
*	*	*	*	*v	*v	*	*	*	*	*	*	*	*	*	*	*	*	*	*	*	*	*	*v	*v	*	*	*	*	*	*	*	*v	*v	*	*	*	*	*	*	*	*
=8	=8	=8	=8	=8	=8	=8	=8	=8	=8	=8	=8	=8	=8	=8	=8	=8	=8	=8	=8	=8	=8	=8	=8	=8	=8	=8	=8	=8	=8	=8	=8	=8	=8	=8	=8	=8	=8	=8
*	*	*	*	*	*	*	*	*	*	*	*	*	*	*	*	*	*	*	*	*	*	*	*	*	*	*	*	*	*	*	*	*	*	*	*	*	*2\right	*
4ryy	4ryy	4ryy	2G\ 2B	2b\) 2dd 2gg	4r	.	.	4r	.	.	4r	.	.	4r	.	.	4r	.	.	4G\	.	2G/ 2d	.	2b/	.	2gg\	.	2G\	.	2g/ 2dd	.	2gg/)	2b\	.	2bb\	.	2ggg\	.
4ryy	4ryy	4ryy	.	.	4r	.	.	4r	.	.	4r	.	.	4r	.	.	4r	.	.	4GG/	.	.	.	.	.	.	.	.	.	.	.	.	.	.	.	.	.	.
=||	=||	=||	=||	=||	=||	=||	=||	=||	=||	=||	=||	=||	=||	=||	=||	=||	=||	=||	=||	=||	=||	=||	=||	=||	=||	=||	=||	=||	=||	=||	=||	=||	=||	=||	=||	=||	=||	=||
4ryy	4ryy	4ryy	8.G\L	4r	8.G\	Ky-	.	4r	.	.	4r	.	.	4r	.	.	4r	.	.	8.G\L	.	4r	.	4r	.	4r	.	4r	.	4r	.	4r	4r	.	4r	.	4r	.
.	.	.	16F#\Jk	.	16F#\	-ri-	.	.	.	.	.	.	.	.	.	.	.	.	.	16F#X\Jk	.	.	.	.	.	.	.	.	.	.	.	.	.	.	.	.	.	.
*	*	*	*	*	*	*	*	*	*	*	*	*	*	*	*	*	*	*	*	*	*	*	*	*	*	*	*	*	*	*	*	*v	*v	*	*	*	*	*
=9	=9	=9	=9	=9	=9	=9	=9	=9	=9	=9	=9	=9	=9	=9	=9	=9	=9	=9	=9	=9	=9	=9	=9	=9	=9	=9	=9	=9	=9	=9	=9	=9	=9	=9	=9	=9	=9
*	*	*	*	*	*2\right	*	*	*	*	*	*	*	*	*	*	*	*	*	*	*	*	*	*	*	*	*	*	*	*	*	*	*	*	*	*	*	*
2.ryy	2.ryy	2.ryy	2G\	4r	[2.G\	-e	.	4r	.	.	4r	.	.	4r	.	.	4r	.	.	2G\	.	4r	.	4r	.	4r	.	2.r	.	2.r	.	2.r	.	2.r	.	2.r	.
.	.	.	.	4r	.	.	.	4r	.	.	4r	.	.	4r	.	.	4r	.	.	.	.	4r	.	4r	.	4r	p	.	.	.	.	.	.	.	.	.	.
.	.	.	4GG/ 4G	8.b\L 8.dd	.	.	.	(8.B\	.	.	(8.d\	Ky-	.	8.b\	.	.	8.dd\	Ky-	.	4GG/	.	8.B\L 8.d	.	8.b\L	.	8.dd\L	.	.	.	.	.	.	.	.	.	.	.
.	.	.	.	16cc\Jk 16ee	.	.	.	16c\	.	.	16e\	-ri-	.	16cc\	.	.	16ee\	-ri-	.	.	.	16c\Jk 16e	.	16cc\Jk	.	16ee\Jk	.	.	.	.	.	.	.	.	.	.	.
!!LO:PB:g=original
=10	=10	=10	=10	=10	=10	=10	=10	=10	=10	=10	=10	=10	=10	=10	=10	=10	=10	=10	=10	=10	=10	=10	=10	=10	=10	=10	=10	=10	=10	=10	=10	=10	=10	=10	=10	=10	=10
*	*	*	*	*^	*	*	*	*	*	*	*	*	*	*	*	*	*	*	*	*	*	*^	*	*	*	*	*	*	*	*	*	*	*	*	*	*	*
*	*	*	*	*	*	*	*	*	*2\right	*	*	*2\right	*	*	*2\right	*	*	*2\right	*	*	*	*	*	*	*	*	*	*	*	*	*	*	*	*	*	*	*	*	*
2.ryy	2.ryy	2.ryy	[2.GG/ [2.G	2dd/	2b\	2.G\]	.	.	2B\	.	.	2d\	-e	.	(2b/	.	.	(2dd\	-e	.	2G\	.	(2d/	2B\	.	(8b/L	.	(8dd/L	.	2.r	.	2.r	.	2.r	.	2.r	.	2.r	.
.	.	.	.	.	.	.	.	.	.	.	.	.	.	.	.	.	.	.	.	.	.	.	.	.	.	8g/	.	8b/	.	.	.	.	.	.	.	.	.	.	.
.	.	.	.	.	.	.	.	.	.	.	.	.	.	.	.	.	.	.	.	.	.	.	.	.	.	8d/	.	8g/	.	.	.	.	.	.	.	.	.	.	.
.	.	.	.	.	.	.	.	.	.	.	.	.	.	.	.	.	.	.	.	.	.	.	.	.	.	8B/)	.	8d/	.	.	.	.	.	.	.	.	.	.	.
.	.	.	.	4b/ 4g/	4ryy	.	.	.	4G/	.	.	4B\	.	.	4g/	.	.	4b\	.	.	4GG/	.	4B/)	4G\	.	8g/	.	8b/	.	.	.	.	.	.	.	.	.	.	.
.	.	.	.	.	.	.	.	.	.	.	.	.	.	.	.	.	.	.	.	.	.	.	.	.	.	8d/J	.	8g/J)	.	.	.	.	.	.	.	.	.	.	.
*	*	*	*	*v	*v	*	*	*	*	*	*	*	*	*	*	*	*	*	*	*	*	*	*	*	*	*	*	*	*	*	*	*	*	*	*	*	*	*	*
=11	=11	=11	=11	=11	=11	=11	=11	=11	=11	=11	=11	=11	=11	=11	=11	=11	=11	=11	=11	=11	=11	=11	=11	=11	=11	=11	=11	=11	=11	=11	=11	=11	=11	=11	=11	=11	=11	=11
*	*	*	*	*	*	*	*	*	*	*	*	*	*	*	*	*	*	*	*	*	*	*rep	*rep	*	*rep	*	*rep	*	*	*	*	*	*	*	*	*	*	*
2.ryy	2.ryy	2.ryy	2.GG/] 2.G]	2b\ 2dd	2.G\	e-	.	2B\)	.	.	2d\)	.	.	2b/)	.	.	2dd\)	.	.	2G\	.	(2d/	2B\	.	(8b/L	.	(8dd/L	.	2.r	.	2.r	.	2.r	.	2.r	.	2.r	.
.	.	.	.	.	.	.	.	.	.	.	.	.	.	.	.	.	.	.	.	.	.	.	.	.	8g/	.	8b/	.	.	.	.	.	.	.	.	.	.	.
.	.	.	.	.	.	.	.	.	.	.	.	.	.	.	.	.	.	.	.	.	.	.	.	.	8d/	.	8g/	.	.	.	.	.	.	.	.	.	.	.
.	.	.	.	.	.	.	.	.	.	.	.	.	.	.	.	.	.	.	.	.	.	.	.	.	8B/)	.	8d/	.	.	.	.	.	.	.	.	.	.	.
.	.	.	.	4g/ 4b	.	.	.	4G/	.	.	4B\	e-	.	4g/	.	.	4b\	e-	.	4GG/	.	4B/)	4G\	.	8g/	.	8b/	.	.	.	.	.	.	.	.	.	.	.
.	.	.	.	.	.	.	.	.	.	.	.	.	.	.	.	.	.	.	.	.	.	.	.	.	8d/J	.	8g/J)	.	.	.	.	.	.	.	.	.	.	.
*	*	*	*	*	*	*	*	*	*	*	*	*	*	*	*	*	*	*	*	*	*	*Xrep	*Xrep	*	*Xrep	*	*Xrep	*	*	*	*	*	*	*	*	*	*	*
=12	=12	=12	=12	=12	=12	=12	=12	=12	=12	=12	=12	=12	=12	=12	=12	=12	=12	=12	=12	=12	=12	=12	=12	=12	=12	=12	=12	=12	=12	=12	=12	=12	=12	=12	=12	=12	=12	=12
.	.	.	8qDD/	.	.	.	.	.	.	.	.	.	.	.	.	.	.	.	.	.	.	.	.	.	.	.	.	.	.	.	.	.	.	.	.	.	.	.
*	*	*	*	*^	*	*	*	*	*	*	*	*	*	*	*	*	*	*	*	*	*	*	*	*	*	*	*	*	*	*	*	*	*^	*	*	*	*	*
!	!	!	!	!	!	!	!	!	!	!	!	!	!	!	!	!	!	!	!	!	!	!	!	!	!	!	!	!	!	!	!LO:DY:a	!	!	!	!	!	!	!LO:DY:a	!	!
2.ryy	2.ryy	2.ryy	4D\	2dd/	4f#\	(4D\	-le-	.	(4F#/	.	.	2d\	-le-	.	(4f#/	.	.	2dd\	-le-	.	(4D\	.	4A/	4F#\	.	(8f#/L	.	(8f#/L	.	(4D\	p	2.dd\	.	2dd/	4f#\	.	(4ff#\	p	(2ddd\	.
.	.	.	.	.	.	.	.	.	.	.	.	.	.	.	.	.	.	.	.	.	.	.	.	.	.	8d/)	.	8dd/	.	.	.	.	.	.	.	.	.	.	.	.
.	.	.	4E\	.	4g\	4E\)	.	.	4G/)	.	.	.	.	.	4g/)	.	.	.	.	.	4E\	.	4G/	4G\	.	(8g/	.	(8g/)	.	4E\	.	.	.	.	4g\	.	4gg\	.	.	.
.	.	.	.	.	.	.	.	.	.	.	.	.	.	.	.	.	.	.	.	.	.	.	.	.	.	8d/)	.	8dd/	.	.	.	.	.	.	.	.	.	.	.	.
.	.	.	4F#\	4cc/	4d\ 4a	4F#\	-i-	.	4A/	.	.	4c\	-i-	.	4a/	.	.	4cc\	-i-	.	4F#\)	.	4A/	4E\	.	(8a/	.	(8a/)	.	4F#\)	.	.	.	4cc/	4a\	.	4aa\)	.	4ccc\	.
.	.	.	.	.	.	.	.	.	.	.	.	.	.	.	.	.	.	.	.	.	.	.	.	.	.	8d/J)	.	8cc/J)	.	.	.	.	.	.	.	.	.	.	.	.
*	*	*	*	*v	*v	*	*	*	*	*	*	*	*	*	*	*	*	*	*	*	*	*	*v	*v	*	*	*	*	*	*	*	*	*	*	*	*	*	*	*	*
=13	=13	=13	=13	=13	=13	=13	=13	=13	=13	=13	=13	=13	=13	=13	=13	=13	=13	=13	=13	=13	=13	=13	=13	=13	=13	=13	=13	=13	=13	=13	=13	=13	=13	=13	=13	=13	=13	=13
2.ryy	2.ryy	2.ryy	2G\	2d/ 2g 2b	2G\	-son	.	2G/	.	.	2B\	-son	.	2g/	.	.	2b\	-son	.	2G\	.	[2G/	.	(8b/L	.	(8b/L	.	2G\	.	2g/ 2dd	.	2b/	2g\	.	2gg\	.	2bb\)	.
.	.	.	.	.	.	.	.	.	.	.	.	.	.	.	.	.	.	.	.	.	.	.	.	8g/	.	8g/	.	.	.	.	.	.	.	.	.	.	.	.
.	.	.	.	.	.	.	.	.	.	.	.	.	.	.	.	.	.	.	.	.	.	.	.	8d/	.	8d/	.	.	.	.	.	.	.	.	.	.	.	.
.	.	.	.	.	.	.	.	.	.	.	.	.	.	.	.	.	.	.	.	.	.	.	.	8B/J)	.	8B/J)	.	.	.	.	.	.	.	.	.	.	.	.
.	.	.	8.G\L	4r	8.G\	Ky-	.	4r	.	.	4r	.	.	4r	.	.	4r	.	.	8.G\L	.	8G/]	.	8G/	.	8G/	.	4r	.	4r	.	4r	4ryy	.	4r	.	4r	.
.	.	.	.	.	.	.	.	.	.	.	.	.	.	.	.	.	.	.	.	.	.	8r	.	8r	.	8r	.	.	.	.	.	.	.	.	.	.	.	.
.	.	.	16F#\Jk	.	16F#\	-ri-	.	.	.	.	.	.	.	.	.	.	.	.	.	16F#\Jk	.	.	.	.	.	.	.	.	.	.	.	.	.	.	.	.	.	.
*	*	*	*	*	*	*	*	*	*	*	*	*	*	*	*	*	*	*	*	*	*	*	*	*	*	*	*	*	*	*	*	*v	*v	*	*	*	*	*
=14	=14	=14	=14	=14	=14	=14	=14	=14	=14	=14	=14	=14	=14	=14	=14	=14	=14	=14	=14	=14	=14	=14	=14	=14	=14	=14	=14	=14	=14	=14	=14	=14	=14	=14	=14	=14	=14
2.ryy	2.ryy	2.ryy	[2.G\	4r	[2.G\	-e	.	4r	.	.	4r	.	.	4r	.	.	4r	.	.	2.G\	.	4r	.	4r	.	4r	.	2.r	.	2.r	.	2.r	.	2.r	.	2.r	.
.	.	.	.	4r	.	.	.	4r	.	.	4r	.	.	4r	.	.	4r	.	.	.	.	4r	.	4r	.	4r	.	.	.	.	.	.	.	.	.	.	.
.	.	.	.	8.b\L 8.dd	.	.	.	8.B\	.	.	8.d\	Ky-	.	8.b\	.	.	8.dd\	Ky-	.	.	.	8.B/L 8.d	.	8.b\L	.	8.dd\L	.	.	.	.	.	.	.	.	.	.	.
.	.	.	.	16cc\Jk 16ee	.	.	.	16c\	.	.	16e\	-ri-	.	16cc\	.	.	16ee\	-ri-	.	.	.	16c/Jk 16e	.	16cc\Jk	.	16ee\Jk	.	.	.	.	.	.	.	.	.	.	.
=15	=15	=15	=15	=15	=15	=15	=15	=15	=15	=15	=15	=15	=15	=15	=15	=15	=15	=15	=15	=15	=15	=15	=15	=15	=15	=15	=15	=15	=15	=15	=15	=15	=15	=15	=15	=15	=15
*	*	*	*	*	*	*	*	*	*	*	*	*	*	*	*	*	*	*	*	*	*	*^	*	*	*	*	*	*	*	*	*	*	*	*	*	*	*
2.ryy	2.ryy	2.ryy	2.G\]	2b\ 2dd	2.G\]	.	.	(2B\	.	.	(2d\	-e	.	(>2b/	.	.	(2dd\	-e	.	(2G\	.	(2d/	2B\	.	(8b/L	.	(8dd/L	.	2.r	.	2.r	.	2.r	.	2.r	.	2.r	.
.	.	.	.	.	.	.	.	.	.	.	.	.	.	.	.	.	.	.	.	.	.	.	.	.	8g/	.	8b/	.	.	.	.	.	.	.	.	.	.	.
.	.	.	.	.	.	.	.	.	.	.	.	.	.	.	.	.	.	.	.	.	.	.	.	.	8d/	.	8g/	.	.	.	.	.	.	.	.	.	.	.
.	.	.	.	.	.	.	.	.	.	.	.	.	.	.	.	.	.	.	.	.	.	.	.	.	8B/	.	8d/	.	.	.	.	.	.	.	.	.	.	.
.	.	.	.	4g/ 4b	.	.	.	4G/	.	.	4B\	.	.	4g/)	.	.	4b\)	.	.	4GG/)	.	4B/)	4G\	.	8g/	.	8b/	.	.	.	.	.	.	.	.	.	.	.
.	.	.	.	.	.	.	.	.	.	.	.	.	.	.	.	.	.	.	.	.	.	.	.	.	8d/J)	.	8g/J)	.	.	.	.	.	.	.	.	.	.	.
!!LO:PB:g=original
=16	=16	=16	=16	=16	=16	=16	=16	=16	=16	=16	=16	=16	=16	=16	=16	=16	=16	=16	=16	=16	=16	=16	=16	=16	=16	=16	=16	=16	=16	=16	=16	=16	=16	=16	=16	=16	=16	=16
2.ryy	2.ryy	2.ryy	2.GG\ 2.G	2b\ 2dd	2.G\	e-	.	2B\)	.	.	2d\)	.	.	2b/	.	.	2dd\	.	.	2G\	.	2d/	2B\	.	8b/L	.	(8dd/L	.	2.r	.	2.r	.	2.r	.	2.r	.	2.r	.
.	.	.	.	.	.	.	.	.	.	.	.	.	.	.	.	.	.	.	.	.	.	.	.	.	8g/	.	8b/	.	.	.	.	.	.	.	.	.	.	.
.	.	.	.	.	.	.	.	.	.	.	.	.	.	.	.	.	.	.	.	.	.	.	.	.	8d/	.	8g/	.	.	.	.	.	.	.	.	.	.	.
.	.	.	.	.	.	.	.	.	.	.	.	.	.	.	.	.	.	.	.	.	.	.	.	.	8B/	.	8d/	.	.	.	.	.	.	.	.	.	.	.
.	.	.	.	4g/ 4b	.	.	.	4G/	.	.	4B\	e-	.	4g/	.	.	4b\	e-	.	4GG/	.	4B/	4G\	.	8g/	.	8b/	.	.	.	.	.	.	.	.	.	.	.
.	.	.	.	.	.	.	.	.	.	.	.	.	.	.	.	.	.	.	.	.	.	.	.	.	8d/J	.	8g/J)	.	.	.	.	.	.	.	.	.	.	.
*	*	*	*	*	*	*	*	*	*	*	*	*	*	*	*	*	*	*	*	*	*	*v	*v	*	*	*	*	*	*	*	*	*	*	*	*	*	*	*
=17	=17	=17	=17	=17	=17	=17	=17	=17	=17	=17	=17	=17	=17	=17	=17	=17	=17	=17	=17	=17	=17	=17	=17	=17	=17	=17	=17	=17	=17	=17	=17	=17	=17	=17	=17	=17	=17
.	.	.	(8qDD/	.	.	.	.	.	.	.	.	.	.	.	.	.	.	.	.	.	.	.	.	.	.	.	.	.	.	.	.	.	.	.	.	.	.
*	*	*	*	*^	*	*	*	*	*	*	*	*	*	*	*	*	*	*	*	*	*	*	*	*	*	*	*	*	*	*^	*	*^	*	*	*	*	*
2.ryy	2.ryy	2.ryy	4D\)	2dd/	4f#\	(4D\	-le-	.	(4F#/	.	.	2d\	-lei-	.	4f#/	.	.	(2dd\	-lei-	.	(4D\	.	(4F#/ 4A	.	(8f#/L	.	(8f#/L	.	(4D\	.	2.dd/	2.dd\	.	(2dd/	4f#\	.	(4ff#\	.	(2ddd\	.
.	.	.	.	.	.	.	.	.	.	.	.	.	.	.	.	.	.	.	.	.	.	.	.	.	8d/)	.	8dd/)	.	.	.	.	.	.	.	.	.	.	.	.	.
.	.	.	4E\	.	4g\	4E\)	.	.	4G/)	.	.	.	.	.	4g/	.	.	.	.	.	4E\	.	4G/	.	(8g/	.	(8g/	.	4E\	.	.	.	.	.	4g\	.	4gg\	.	.	.
.	.	.	.	.	.	.	.	.	.	.	.	.	.	.	.	.	.	.	.	.	.	.	.	.	8d/)	.	8dd/)	.	.	.	.	.	.	.	.	.	.	.	.	.
.	.	.	4F#\	4cc/	4d\ 4a	4F#\	-i-	.	4A/	.	.	4c\	.	.	4a/	.	.	4cc\)	.	.	4F#\)	.	4E/) 4A	.	(8a/	.	(8a/	.	4F#\)	.	.	.	.	4cc/	4a\	.	4aa\	.	4ccc\	.
.	.	.	.	.	.	.	.	.	.	.	.	.	.	.	.	.	.	.	.	.	.	.	.	.	8d/J)	.	8cc/J)	.	.	.	.	.	.	.	.	.	.	.	.	.
*	*	*	*	*	*	*	*	*	*	*	*	*	*	*	*	*	*	*	*	*	*	*	*	*	*	*	*	*	*	*	*v	*v	*	*	*	*	*	*	*	*
*	*	*	*	*	*	*	*	*	*	*	*	*	*	*	*	*	*	*	*	*	*	*	*	*	*	*	*	*	*	*	*	*	*v	*v	*	*	*	*	*
!!LO:PB:g=original
=18	=18	=18	=18	=18	=18	=18	=18	=18	=18	=18	=18	=18	=18	=18	=18	=18	=18	=18	=18	=18	=18	=18	=18	=18	=18	=18	=18	=18	=18	=18	=18	=18	=18	=18	=18	=18	=18	=18
2.ryy	2.ryy	2.ryy	2G\	2d/ 2g 2b	2ryy	2G\	-son	.	2G/	.	.	2B\	-son	.	2g/	.	.	2b\	-son	.	2G\	.	2G/	.	8g/	.	8b\L	.	2G\	.	2g/ 2dd	.	2g/ 2b/)	.	2gg\)	.	2bb\)	.
.	.	.	.	.	.	.	.	.	.	.	.	.	.	.	.	.	.	.	.	.	.	.	.	.	(4b/	.	8gg\	.	.	.	.	.	.	.	.	.	.	.
.	.	.	.	.	.	.	.	.	.	.	.	.	.	.	.	.	.	.	.	.	.	.	.	.	.	.	8dd\	.	.	.	.	.	.	.	.	.	.	.
.	.	.	.	.	.	.	.	.	.	.	.	.	.	.	.	.	.	.	.	.	.	.	.	.	8g/)	.	8b\J	.	.	.	.	.	.	.	.	.	.	.
.	.	.	4E\	8dd/L	4g\	4E\	e-	.	4G/	.	.	(8d\L	e-	.	4g/	.	.	8dd\L	e-	.	4E\	.	4e\	.	4g/	.	(8dd\L	.	4r	.	4r	.	4r	.	4r	.	4r	.
.	.	.	.	8cc/J	.	.	.	.	.	.	.	8c\J)	.	.	.	.	.	8cc\J	.	.	.	.	.	.	.	.	8cc\J)	.	.	.	.	.	.	.	.	.	.	.
=19	=19	=19	=19	=19	=19	=19	=19	=19	=19	=19	=19	=19	=19	=19	=19	=19	=19	=19	=19	=19	=19	=19	=19	=19	=19	=19	=19	=19	=19	=19	=19	=19	=19	=19	=19	=19	=19	=19
*	*	*	*	*	*	*	*	*	*	*	*	*	*	*	*	*	*	*	*	*	*	*	*tremolo	*	*tremolo	*	*tremolo	*	*	*	*	*	*	*	*	*	*	*
2.ryy	2.ryy	2.ryy	2F#\	2a/	2f#\	2F#\	-le-	.	2F#/	.	.	2A\	-le-	.	2f#/	.	.	2a/	-le-	.	2F#\	.	8f#\L	.	8f#/L	.	8a/L	.	2.r	.	2.r	.	2.r	.	2.r	.	2.r	.
.	.	.	.	.	.	.	.	.	.	.	.	.	.	.	.	.	.	.	.	.	.	.	8f#\	.	8f#/	.	8a/	.	.	.	.	.	.	.	.	.	.	.
.	.	.	.	.	.	.	.	.	.	.	.	.	.	.	.	.	.	.	.	.	.	.	8f#\	.	8f#/	.	8a/	.	.	.	.	.	.	.	.	.	.	.
.	.	.	.	.	.	.	.	.	.	.	.	.	.	.	.	.	.	.	.	.	.	.	8f#\J	.	8f#/	.	8a/J	.	.	.	.	.	.	.	.	.	.	.
*	*	*	*	*	*	*	*	*	*	*	*	*	*	*	*	*	*	*	*	*	*	*	*Xtremolo	*	*	*	*Xtremolo	*	*	*	*	*	*	*	*	*	*	*
.	.	.	4D#X\	8cc/L	4f#\	4D#X\	-i-	.	4F#/	.	.	(8c\L	-i-	.	4f#/	.	.	(8cc\L	-i-	.	4D#X\	.	8d#X\L	.	8f#/	.	(8cc/L	.	.	.	.	.	.	.	.	.	.	.
.	.	.	.	8b/J	.	.	.	.	.	.	.	8B\J)	.	.	.	.	.	8b\J)	.	.	.	.	8d#\J	.	8f#/J	.	8b/J)	.	.	.	.	.	.	.	.	.	.	.
*	*	*	*	*	*	*	*	*	*	*	*	*	*	*	*	*	*	*	*	*	*	*	*	*	*Xtremolo	*	*	*	*	*	*	*	*	*	*	*	*	*
*	*	*	*	*v	*v	*	*	*	*	*	*	*	*	*	*	*	*	*	*	*	*	*	*	*	*	*	*	*	*	*	*	*	*	*	*	*	*	*
=20	=20	=20	=20	=20	=20	=20	=20	=20	=20	=20	=20	=20	=20	=20	=20	=20	=20	=20	=20	=20	=20	=20	=20	=20	=20	=20	=20	=20	=20	=20	=20	=20	=20	=20	=20	=20	=20
*	*	*	*	*	*	*	*	*	*	*	*	*	*	*	*	*	*	*	*	*	*	*	*	*	*	*	*	*	*	*^	*	*	*	*	*	*	*
*	*	*	*	*	*	*	*	*	*	*	*	*	*	*	*	*	*	*	*	*	*	*	*	*	*	*	*	*	*	*	*	*	*^	*	*	*	*	*
*	*	*	*	*	*	*	*	*	*	*	*	*	*	*	*	*	*	*	*	*	*	*tremolo	*	*tremolo	*	*tremolo	*	*	*	*	*	*	*	*	*	*	*	*	*
!	!	!	!	!	!	!	!	!	!	!	!	!	!LO:DY:a	!	!	!	!	!	!	!	!	!	!	!	!LO:HP:a	!	!LO:HP:a	!	!LO:HP:a	!	!	!	!	!	!	!	!	!	!
2.ryy	2.ryy	2.ryy	2E\	2e/ 2g	2E\	-son	<	2E/	.	.	2G/	-son	<	2e/	.	.	2g/	-son	.	2E\	.	8e\L	<	8e/L	<	8g/L	<	2E\	<	4r	2ryy	.	(2g/	2.e\	.	2.ee\	<[	2gg\	<
.	.	.	.	.	.	.	.	.	.	.	.	.	.	.	.	.	.	.	.	.	.	8e\	.	8e/	.	8g/	.	.	.	.	.	.	.	.	.	.	.	.	.
.	.	.	.	.	.	.	.	.	.	.	.	.	.	.	.	.	.	.	.	.	.	8e\	.	8e/	.	8g/	.	.	.	4r	.	.	.	.	.	.	.	.	.
.	.	.	.	.	.	.	.	.	.	.	.	.	.	.	.	.	.	.	.	.	.	8e\J	.	8e/	.	8g/J	.	.	.	.	.	.	.	.	.	.	.	.	.
*	*	*	*	*	*	*	*	*	*	*	*	*	*	*	*	*	*	*	*	*	*	*Xtremolo	*	*	*	*Xtremolo	*	*	*	*	*	*	*	*	*	*	*	*	*
.	.	.	4C/	4e/ 4a	4C/	e-	.	4E/	.	.	4A/	e-	[[	4e/	.	.	4a/	e-	.	4C/	.	8c\L	.	8e/	.	8a/L	.	4C/	[[	4ee/	4cc\	.	4a/	.	.	.	.	4aa\	[[
.	.	.	.	.	.	.	[[	.	.	.	.	.	.	.	.	.	.	.	.	.	.	8c\J	[[	8e/J	[[	8a/J	[[	.	.	.	.	.	.	.	.	.	.	.	.
*	*	*	*	*	*	*	*	*	*	*	*	*	*	*	*	*	*	*	*	*	*	*	*	*Xtremolo	*	*	*	*	*	*	*	*	*	*	*	*	*	*	*
*	*	*	*	*	*	*	*	*	*	*	*	*	*	*	*	*	*	*	*	*	*	*	*	*	*	*	*	*	*	*v	*v	*	*v	*v	*	*	*	*	*
=21	=21	=21	=21	=21	=21	=21	=21	=21	=21	=21	=21	=21	=21	=21	=21	=21	=21	=21	=21	=21	=21	=21	=21	=21	=21	=21	=21	=21	=21	=21	=21	=21	=21	=21	=21	=21	=21
*	*	*	*	*	*	*	*	*	*	*	*	*	*	*	*	*	*	*	*	*	*	*	*	*	*	*	*	*	*	*^	*	*	*	*	*	*	*
!	!	!	!	!	!	!	!	!	!	!	!	!	!LO:DY:a	!	!	!	!	!	!	!	!	!	!	!	!	!	!	!	!LO:DY:a	!	!	!	!	!	!	!	!	!
2.ryy	2.ryy	2.ryy	4.BB/	2.d#X/ 2.b	2.BB/	-lei	f	2.D#X/	.	.	2.B\	-lei-	f	2.d#X/	.	.	2.b\	-lei-	.	4.BB/	.	4.B/	f	4.d#X/	.	4.b\	f	4.BB/	f	4.ff#X/	4.b\	.	4.d#X/) 4.b	.	4.dd#X\	f	4.bb\	f
.	.	.	8D#X\L	.	.	.	.	.	.	.	.	.	.	.	.	.	.	.	.	8D#X\L	.	8B\L	.	8b/L	.	8bb\L	.	8D#X\L	.	8r	8ryy	.	8B/L 8b	.	8b/L	.	8bb\L	.
.	.	.	8F#\	.	.	.	.	.	.	.	.	.	.	.	.	.	.	.	.	8F#\	.	8d#X\	.	8f#/	.	8ff#\	.	8F#\	.	4r	4ryy	.	8d#X/ 8dd#X	.	8f#/	.	8ff#\	.
.	.	.	8B\J	.	.	.	.	.	.	.	.	.	.	.	.	.	.	.	.	8B\J	.	8f#\J	.	8d#/J	.	8dd#X\J	.	8B\J	.	.	.	.	8f#/J 8ff#	.	8dd#/J	.	8ddd#X\J	.
!!LO:PB:g=original
=22	=22	=22	=22	=22	=22	=22	=22	=22	=22	=22	=22	=22	=22	=22	=22	=22	=22	=22	=22	=22	=22	=22	=22	=22	=22	=22	=22	=22	=22	=22	=22	=22	=22	=22	=22	=22	=22	=22
*	*	*	*	*^	*	*	*	*	*	*	*	*	*	*	*	*	*	*	*	*	*	*	*	*	*	*	*	*	*	*	*	*	*	*	*	*	*	*
2.ryy	2.ryy	2.ryy	2BB/	2d#X/ 2b/	2ryy	2BB/	.	.	2D#X/	.	.	2B\	-son,	.	2d#X/	.	.	2b\	-son,	.	4BB/	.	4d#X\	.	4B/	.	4b\	.	4BB/	.	4b/	4b\	.	4f#/ 4dd#X	.	4b\	.	4bb\	.
.	.	.	.	.	.	.	.	.	.	.	.	.	.	.	.	.	.	.	.	.	4BB/	.	4B\ 4f#	.	4B/ 4f# 4dd#X	.	4f#\ 4dd#X 4bb	.	4BB\ 4B	.	4b/	4b\	.	4f#/ 4dd#	.	4bb\	.	4bb\	.
.	.	.	4r	4b/	4r	4r	.	.	4r	.	.	4B\	Chri-	.	4r	.	.	4b\	Chris-	.	4r	.	4r	.	4r	.	4r	.	4r	.	4r	4ryy	.	4r	.	4b\	.	4r	.
*	*	*	*	*	*	*	*	*	*	*	*	*	*	*	*	*	*	*	*	*	*	*	*	*	*	*	*	*	*	*	*v	*v	*	*	*	*	*	*	*
=23	=23	=23	=23	=23	=23	=23	=23	=23	=23	=23	=23	=23	=23	=23	=23	=23	=23	=23	=23	=23	=23	=23	=23	=23	=23	=23	=23	=23	=23	=23	=23	=23	=23	=23	=23	=23	=23	=23
2.ryy	2.ryy	2.ryy	2.r	2.ee/	4r	2.r	.	.	4r	.	.	[2.e\	-ste	.	4r	.	.	[2.ee\	-te	.	2.r	.	2.r	.	2.r	.	2.r	.	2.r	.	2.r	.	4r	.	[2.ee\	.	2.r	.
.	.	.	.	.	4rf	.	.	.	4r	.	.	.	.	.	4r	.	.	.	.	.	.	.	.	.	.	.	.	.	.	.	.	.	4r	.	.	.	.	.
.	.	.	.	.	4g\	.	.	.	4G/	Chri-	.	.	.	.	4g/	Chri-	.	.	.	.	.	.	.	.	.	.	.	.	.	.	.	.	4g/	.	.	.	.	.
=24	=24	=24	=24	=24	=24	=24	=24	=24	=24	=24	=24	=24	=24	=24	=24	=24	=24	=24	=24	=24	=24	=24	=24	=24	=24	=24	=24	=24	=24	=24	=24	=24	=24	=24	=24	=24	=24	=24
2.ryy	2.ryy	2.ryy	4r	2ee/	2cc\	4r	.	.	2c\	-ste	.	2e\]	.	.	2cc\	-ste	.	2ee\]	.	.	2.r	.	2.r	.	2.r	.	2.r	.	4r	.	2.r	.	2cc/	.	2ee\]	.	2.r	.
.	.	.	4r	.	.	4r	.	.	.	.	.	.	.	.	.	.	.	.	.	.	.	.	.	.	.	.	.	.	4r	.	.	.	.	.	.	.	.	.
.	.	.	4AA/ 4A	4ff#/	4cc\	4AA/	Chri-	.	4c\	e-	.	4f#\	e-	.	4cc\	e-	.	4ff#\	e-	.	.	.	.	.	.	.	.	.	4AA\ 4A	.	.	.	4cc/	.	4ff#\	.	.	.
*	*	*	*	*v	*v	*	*	*	*	*	*	*	*	*	*	*	*	*	*	*	*	*	*	*	*	*	*	*	*	*	*	*	*	*	*	*	*	*
=25	=25	=25	=25	=25	=25	=25	=25	=25	=25	=25	=25	=25	=25	=25	=25	=25	=25	=25	=25	=25	=25	=25	=25	=25	=25	=25	=25	=25	=25	=25	=25	=25	=25	=25	=25	=25	=25
2.ryy	2.ryy	2.ryy	[2.BB\ [2.B	4.b\ 4.gg	2BB/	-ste	.	(4.B\	-le-	.	(4.g\	-le-	.	(>4.b/	-le-	.	(4.gg\	-le-	.	2.r	.	2.r	.	2.r	.	2.r	.	2BB\ 2B	.	2.r	.	4.b/	.	4.gg\	.	2.r	.
.	.	.	.	8a\ 8ff#	.	.	.	8A\	.	.	8f#\	.	.	8a/	.	.	8ff#\	.	.	.	.	.	.	.	.	.	.	.	.	.	.	8a/	.	8ff#\	.	.	.
.	.	.	.	4g/ [4ee	4BB/	e-	.	4G\	.	.	4e\	.	.	4g/)	.	.	4ee\)	.	.	.	.	.	.	.	.	.	.	4BB\ 4B	.	.	.	4g/	.	(4ee\	.	.	.
=26	=26	=26	=26	=26	=26	=26	=26	=26	=26	=26	=26	=26	=26	=26	=26	=26	=26	=26	=26	=26	=26	=26	=26	=26	=26	=26	=26	=26	=26	=26	=26	=26	=26	=26	=26	=26	=26
*	*	*	*	*^	*	*	*	*	*	*	*	*	*	*	*	*	*	*	*	*	*	*	*	*	*	*	*	*	*	*	*	*	*	*	*	*	*
2.ryy	2.ryy	2.ryy	2.BB\] 2.B]	4ee/]	2.f#\	2BB/	-le-	.	2F#/)	.	.	4e\	.	.	2f#/	.	.	(4ee\	.	.	2.r	.	2.r	.	2.r	.	2.r	.	2.BB\ 2.B	.	2.r	.	2.f#/	.	4ee\	.	2.r	.
.	.	.	.	8dd#X/L	.	.	.	.	.	.	.	8d#X\L	.	.	.	.	.	8dd#X\L	.	.	.	.	.	.	.	.	.	.	.	.	.	.	.	.	8dd#X\L	.	.	.
.	.	.	.	8cc#X/J	.	.	.	.	.	.	.	8c#X\J)	.	.	.	.	.	8cc#X\J	.	.	.	.	.	.	.	.	.	.	.	.	.	.	.	.	8cc#X\J	.	.	.
.	.	.	.	4dd#/	.	4BB/	-i-	.	4F#/	-i-	.	4d#\	-i-	.	4f#/	-i-	.	4dd#\)	-i-	.	.	.	.	.	.	.	.	.	.	.	.	.	.	.	4dd#\	.	.	.
=27	=27	=27	=27	=27	=27	=27	=27	=27	=27	=27	=27	=27	=27	=27	=27	=27	=27	=27	=27	=27	=27	=27	=27	=27	=27	=27	=27	=27	=27	=27	=27	=27	=27	=27	=27	=27	=27	=27
2.ryy	2.ryy	2.ryy	2E\	2ee/	2g\	2E\	-son	.	2G/	-son	.	2e\	-son	.	2g/	-son.	.	2ee\	-son	.	4r	.	4r	.	4r	.	4r	.	2E\ 2B	.	2.r	.	2g/	.	2ee\)	.	4r	.
.	.	.	.	.	.	.	.	.	.	.	.	.	.	.	.	.	.	.	.	.	8r	.	8r	p	8r	.	8r	p	.	.	.	.	.	.	.	.	8r	.
.	.	.	.	.	.	.	.	.	.	.	.	.	.	.	.	.	.	.	.	.	(8E\L	.	(8e\L	.	(8g/L	.	(8ee\L	.	.	.	.	.	.	.	.	.	(8eee\L	.
.	.	.	4F#\	8ddn/L	4a\	4F#\	Chri-	.	4A/	.	.	(8dn\L	Chri-	.	4a/	Chri	.	8ddn\L	Chri-	.	8F#\)	.	8f#\)	.	8a/)	.	8dd\	.	4r	.	.	.	4r	.	4r	.	8ddd\	.
.	.	.	.	8ccn/J	.	.	.	.	.	.	.	8cn\J)	.	.	.	.	.	8cc\J	.	.	8F#\J	.	8f#\J	.	8a/J	.	8cc\J	.	.	.	.	.	.	.	.	.	8ccc\J)	.
!!LO:PB:g=original
=28	=28	=28	=28	=28	=28	=28	=28	=28	=28	=28	=28	=28	=28	=28	=28	=28	=28	=28	=28	=28	=28	=28	=28	=28	=28	=28	=28	=28	=28	=28	=28	=28	=28	=28	=28	=28	=28	=28
!	!	!	!	!	!	!	!	!	!	!	!	!	!	!	!	!	!	!	!	!	!	!	!	!	!	!	!LO:TX:t=P:problem=brak zakończenia łuku	!	!	!	!	!	!	!	!	!	!	!
2.ryy	2.ryy	2.ryy	2G\	2g/ 2b	2ryy	2G\	-ste	.	2G/	.	.	2B\	-ste	.	2g/	.	.	2b\	-ste	.	2G\	.	2g\	.	2g/	.	2b\)	.	2.r	.	2.r	.	2.r	.	2.r	.	2bb\	.
.	.	.	4E\	8dd/L	4g\	4E\	e-	.	4G/	.	.	(8d\L	e-	.	4g/	.	.	(8dd\L	e-	.	4E\	.	4e\	.	4g/	.	(8dd\L	.	.	.	.	.	.	.	.	.	(8ddd\L	.
.	.	.	.	8cc/J	.	.	.	.	.	.	.	8c\J)	.	.	.	.	.	8cc\J)	.	.	.	.	.	.	.	.	8cc\J)	.	.	.	.	.	.	.	.	.	8ccc\J)	.
*	*	*	*	*v	*v	*	*	*	*	*	*	*	*	*	*	*	*	*	*	*	*	*	*	*	*	*	*	*	*	*	*	*	*	*	*	*	*	*
=29	=29	=29	=29	=29	=29	=29	=29	=29	=29	=29	=29	=29	=29	=29	=29	=29	=29	=29	=29	=29	=29	=29	=29	=29	=29	=29	=29	=29	=29	=29	=29	=29	=29	=29	=29	=29	=29
2.ryy	2.ryy	2.ryy	2D\	2g/ 2b	2D\	-le-	.	(2G/	.	.	(2B\	-lei-	.	(2g/	.	.	(2b\	-lei-	.	2D\	.	(2d\	.	2g/	.	(>2b/	.	2.r	.	2.r	.	2.r	.	2.r	.	(2bb\	.
.	.	.	4C/	4f#/ 4a	4C/	-i-	.	4F#/)	.	.	4A\)	.	.	4f#/)	.	.	4a/)	.	.	4C/	.	4c\)	.	4f#/	.	4a/)	.	.	.	.	.	.	.	.	.	4aa\)	.
=30	=30	=30	=30	=30	=30	=30	=30	=30	=30	=30	=30	=30	=30	=30	=30	=30	=30	=30	=30	=30	=30	=30	=30	=30	=30	=30	=30	=30	=30	=30	=30	=30	=30	=30	=30	=30	=30
*	*	*	*	*	*	*	*	*	*	*	*	*	*	*	*	*	*	*	*	*	*	*	*	*	*	*	*	*	*	*^	*	*^	*	*	*	*	*
2.ryy	2.ryy	2.ryy	2BB/	2g/ 2dd	2BB/	-son	.	2G/	.	.	2d\	-son	.	2g/	.	.	2dd\	-son	.	2BB/	.	(>2B/	.	2g/	.	(2dd\	.	2BB/	.	2dd/	2g\	.	(2dd/	2.g\	.	(2.gg\	.	(2ddd\	.
.	.	.	4C/	4g/ 4ee	4C/	e-	.	4G/	.	.	4e\	e-	.	4g/	.	.	4ee\	e-	.	4C/	.	4c/)	.	4g/	.	4ee\)	.	4C/	.	4ee/	4cc\	.	4ee/)	.	.	.	.	4eee\)	.
=31	=31	=31	=31	=31	=31	=31	=31	=31	=31	=31	=31	=31	=31	=31	=31	=31	=31	=31	=31	=31	=31	=31	=31	=31	=31	=31	=31	=31	=31	=31	=31	=31	=31	=31	=31	=31	=31	=31	=31
2.ryy	2.ryy	2.ryy	2D\	2g/ 2b	2D/	-le-	.	2G/	.	.	(2B\	-lei-	.	2g/	.	.	(>2b/	-lei-	.	2D\	.	2d\	.	2g/	.	(2b/	.	2D/	.	2.dd/	2.dd\	.	(2b/	2g\	.	2gg\	.	(2bb\	.
.	.	.	4C/	4f#/ 4a	4C/	-i-	.	4F#/	.	.	4A\)	.	.	4f#/	.	.	4a/)	.	.	4C/	.	4c\	.	4f#/	.	4a/)	.	4C/	.	.	.	.	4a/)	4f#\	.	4ff#\)	.	4aa\)	.
=32	=32	=32	=32	=32	=32	=32	=32	=32	=32	=32	=32	=32	=32	=32	=32	=32	=32	=32	=32	=32	=32	=32	=32	=32	=32	=32	=32	=32	=32	=32	=32	=32	=32	=32	=32	=32	=32	=32	=32
*	*	*	*	*^	*	*	*	*	*	*	*	*	*	*	*	*	*	*	*	*	*	*	*	*	*	*	*	*	*	*	*	*	*	*	*	*	*	*	*
2.ryy	2.ryy	2.ryy	2BB/	4.dd/	2g\	2BB/	-son	.	2G/	.	.	(4.d\	-son	.	2g/	.	.	(4.dd\	-son	.	2BB/	.	2B/	.	2g/	.	(4.dd\	.	2BB/	.	4.dd/	2g\	.	4.dd/	2g\	.	2gg\	.	(4.ddd\	.
.	.	.	.	8dd#X/	.	.	.	.	.	.	.	8d#X\)	.	.	.	.	.	8dd#X\)	.	.	.	.	.	.	.	.	8dd#X\	.	.	.	8dd#X/	.	.	8dd#X/	.	.	.	.	8ddd#X\)	.
.	.	.	4C/	8ee/L	8g\L	4C/	e-	.	(8G/L	.	.	(8e\L	e-	.	8g/L	.	.	(8ee\L	e-	.	4C/	.	4c/	.	8g/L	.	8ee\L	.	4C/	.	4ee/	4cc\	.	(8ee/L	8g\L	.	8gg\L	.	(8eee\L	.
.	.	.	.	8cc/J	8a\J	.	.	.	8A/J)	.	.	8c\J)	.	.	8a/J	.	.	8cc\J)	.	.	.	.	.	.	8a/J	.	8cc\J)	.	.	.	.	.	.	8cc/J)	8a\J	.	8aa\J	.	8ccc\J)	.
*	*	*	*	*v	*v	*	*	*	*	*	*	*	*	*	*	*	*	*	*	*	*	*	*	*	*	*	*	*	*	*	*	*	*	*	*	*	*	*	*	*
=33	=33	=33	=33	=33	=33	=33	=33	=33	=33	=33	=33	=33	=33	=33	=33	=33	=33	=33	=33	=33	=33	=33	=33	=33	=33	=33	=33	=33	=33	=33	=33	=33	=33	=33	=33	=33	=33	=33	=33
*	*	*	*	*	*	*	*	*	*	*	*	*	*	*	*	*	*	*	*	*tremolo	*	*tremolo	*	*	*	*	*	*	*	*	*	*	*	*	*	*	*	*	*
!	!	!	!	!	!	!	!	!	!	!	!	!	!	!	!	!	!	!	!	!	!	!	!LO:DY:a	!	!	!	!	!	!	!	!	!LO:DY:a	!	!	!	!	!	!	!
2.ryy	2.ryy	2.ryy	[2.D\	[2.g/ 2.b	2.D\	-le-	ff	2.G/	.	ff	2.B\	-le-	ff	2.g/	.	.	2.b\	-le	.	8D\L	ff	8d\L	ff	8g/L	.	8b\L	ff	2.D\	.	2.dd/	2.dd\	ff	2.b/	2.g\	.	2.gg\	.	2.bb\	ff
.	.	.	.	.	.	.	.	.	.	.	.	.	.	.	.	.	.	.	.	8D\	.	8d\	.	8g/J 8b	.	8b\J 8gg	.	.	.	.	.	.	.	.	.	.	.	.	.
*	*	*	*	*	*	*	*	*	*	*	*	*	*	*	*	*	*	*	*	*	*	*	*	*tremolo	*	*tremolo	*	*	*	*	*	*	*	*	*	*	*	*	*
.	.	.	.	.	.	.	.	.	.	.	.	.	.	.	.	.	.	.	.	8D\	.	8d\	.	8g/L 8b	.	8b\L 8gg	.	.	.	.	.	.	.	.	.	.	.	.	.
.	.	.	.	.	.	.	.	.	.	.	.	.	.	.	.	.	.	.	.	8D\	.	8d\	.	8g/ 8b	.	8b\ 8gg	.	.	.	.	.	.	.	.	.	.	.	.	.
.	.	.	.	.	.	.	.	.	.	.	.	.	.	.	.	.	.	.	.	8D\	.	8d\	.	8g/ 8b	.	8b\ 8gg	.	.	.	.	.	.	.	.	.	.	.	.	.
.	.	.	.	.	.	.	.	.	.	.	.	.	.	.	.	.	.	.	.	8D\J	.	8d\J	.	8g/J 8b	.	8b\J 8gg	.	.	.	.	.	.	.	.	.	.	.	.	.
*	*	*	*	*	*	*	*	*	*	*	*	*	*	*	*	*	*	*	*	*Xtremolo	*	*Xtremolo	*	*Xtremolo	*	*Xtremolo	*	*	*	*	*	*	*	*	*	*	*	*	*
!!LO:PB:g=original
=34	=34	=34	=34	=34	=34	=34	=34	=34	=34	=34	=34	=34	=34	=34	=34	=34	=34	=34	=34	=34	=34	=34	=34	=34	=34	=34	=34	=34	=34	=34	=34	=34	=34	=34	=34	=34	=34	=34	=34
*	*	*	*	*^	*	*	*	*	*	*	*	*	*	*	*	*	*	*	*	*	*	*	*	*	*	*^	*	*	*	*	*	*	*	*	*	*	*	*	*
*	*	*	*	*	*	*	*	*	*	*	*	*	*	*	*	*	*	*	*	*	*tremolo	*	*tremolo	*	*tremolo	*	*	*	*	*	*	*	*	*	*	*	*	*	*	*	*
2.ryy	2.ryy	2.ryy	2.DD/ 2.D]	2.a/	4g\]	2.D\	-i-	.	(4G/	.	.	2.A\	-i-	.	(4g/	.	.	2a/	.	.	8D\L	.	8d\L	.	8a/L	.	8a'\L 8gg	4ryy	.	2D\	.	2dd/	2dd\	.	(2a/	4g\	.	(4gg\	.	2aa\	.
.	.	.	.	.	.	.	.	.	.	.	.	.	.	.	.	.	.	.	.	.	8D\	.	8d\	.	8a/	.	8a'\J 8gg	.	.	.	.	.	.	.	.	.	.	.	.	.	.
.	.	.	.	.	8f#\L	.	.	.	8F#/L	.	.	.	.	.	8f#/L	.	.	.	.	.	8D\	.	8d\	.	8a/	.	(8ff#/L	4a\	.	.	.	.	.	.	.	8f#\L	.	8ff#\L	.	.	.
.	.	.	.	.	8e\J	.	.	.	8E/J	.	.	.	.	.	8e/J	.	.	.	.	.	8D\	.	8d\J	.	8a/	.	8ee/J)	.	.	.	.	.	.	.	.	8e\J	.	8ee\J	.	.	.
*	*	*	*	*	*	*	*	*	*	*	*	*	*	*	*	*	*	*	*	*	*	*	*Xtremolo	*	*	*	*	*	*	*	*	*	*	*	*	*	*	*	*	*	*
.	.	.	.	.	4f#\	.	.	.	4F#/)	i-	.	.	.	.	4f#/)	.	.	4dd\	.	.	8D\	.	8D/L	.	8a/	.	8a'\L 8ff#	4ryy	.	4D\	.	4dd/	4dd\	.	4dd/)	4f#\	.	4ff#\)	.	4ddd\	.
.	.	.	.	.	.	.	.	.	.	.	.	.	.	.	.	.	.	.	.	.	8D\J	.	8D/J	.	8a/J	.	8a'\J 8ff#	.	.	.	.	.	.	.	.	.	.	.	.	.	.
*	*	*	*	*	*	*	*	*	*	*	*	*	*	*	*	*	*	*	*	*	*Xtremolo	*	*	*	*Xtremolo	*	*	*	*	*	*	*	*	*	*	*	*	*	*	*	*
*	*	*	*	*	*	*	*	*	*	*	*	*	*	*	*	*	*	*	*	*	*	*	*	*	*	*	*v	*v	*	*	*	*v	*v	*	*	*	*	*	*	*	*
=35	=35	=35	=35	=35	=35	=35	=35	=35	=35	=35	=35	=35	=35	=35	=35	=35	=35	=35	=35	=35	=35	=35	=35	=35	=35	=35	=35	=35	=35	=35	=35	=35	=35	=35	=35	=35	=35	=35	=35
2.ryy	2.ryy	2.ryy	2GG\ 2G	2b/	2g\	2G\	-son	.	2G/	-son	.	2B\	-son	.	2g/	.	.	2g/	.	.	4G\	.	2G/	.	2g/	.	2b\ 2gg	.	2G\	.	2g/ 2dd	.	2b/	2g\	.	2gg\	.	2gg\	.
.	.	.	.	.	.	.	.	.	.	.	.	.	.	.	.	.	.	.	.	.	4GG/	.	.	.	.	.	.	.	.	.	.	.	.	.	.	.	.	.	.
!	!	!	!	!	!	!	!	!LO:DY:a	!	!	!	!	!	!	!	!	!	!	!	!	!	!	!	!	!	!	!	!	!	!	!	!	!	!	!	!	!	!	!
.	.	.	8.G\L	4r	4ryy	8.G\	Ky-	p	4r	.	.	4r	.	.	4r	.	.	4r	.	.	8.G\L	p	4r	.	4r	.	4r	.	4r	.	4r	.	4r	4ryy	.	4r	.	4r	.
.	.	.	16F#\Jk	.	.	16F#\	-ri-	.	.	.	.	.	.	.	.	.	.	.	.	.	16F#\Jk	.	.	.	.	.	.	.	.	.	.	.	.	.	.	.	.	.	.
*	*	*	*	*v	*v	*	*	*	*	*	*	*	*	*	*	*	*	*	*	*	*	*	*	*	*	*	*	*	*	*	*	*	*v	*v	*	*	*	*	*
=36	=36	=36	=36	=36	=36	=36	=36	=36	=36	=36	=36	=36	=36	=36	=36	=36	=36	=36	=36	=36	=36	=36	=36	=36	=36	=36	=36	=36	=36	=36	=36	=36	=36	=36	=36	=36	=36
2.ryy	2.ryy	2.ryy	[2G\	4r	[2.G\	-e	.	4r	.	.	4r	.	.	4r	.	.	4r	.	.	2G\	.	4r	.	4r	.	4r	.	2.r	.	2.r	.	2.r	.	2.r	.	2.r	.
.	.	.	.	4r	.	.	.	4r	.	.	4r	.	.	4r	.	.	4r	.	.	.	.	4r	p	4r	.	4r	.	.	.	.	.	.	.	.	.	.	.
!	!	!	!	!	!	!	!	!	!	!	!	!	!LO:DY:a	!	!	!	!	!	!	!	!	!	!	!	!	!	!	!	!	!	!	!	!	!	!	!	!
.	.	.	4GG/ 4G]	8.b\L 8.dd	.	.	.	8.B\	.	.	8.d\	Ky-	p	8.b\	.	.	8.dd\	.	.	4GG/	.	8.B\L 8.d	.	8.b\L	.	8.dd\L	p	.	.	.	.	.	.	.	.	.	.
.	.	.	.	16cc\Jk 16ee	.	.	.	16c\	.	.	16e\	-ri-	.	16cc\	.	.	16ee\	.	.	.	.	16c\Jk 16e	.	16cc\Jk	.	16ee\Jk	.	.	.	.	.	.	.	.	.	.	.
=37	=37	=37	=37	=37	=37	=37	=37	=37	=37	=37	=37	=37	=37	=37	=37	=37	=37	=37	=37	=37	=37	=37	=37	=37	=37	=37	=37	=37	=37	=37	=37	=37	=37	=37	=37	=37	=37
2.ryy	2.ryy	2.ryy	[2.GG/ [2.G	2b\ 2dd	2.G\]	.	.	2B\	.	.	2d\	-e	.	(2b/	.	.	(2dd\	.	.	2G\	.	2B/ 2d	.	(8b/L	.	(8dd/L	.	2.r	.	2.r	.	2.r	.	2.r	.	2.r	.
.	.	.	.	.	.	.	.	.	.	.	.	.	.	.	.	.	.	.	.	.	.	.	.	8g/	.	8b/	.	.	.	.	.	.	.	.	.	.	.
.	.	.	.	.	.	.	.	.	.	.	.	.	.	.	.	.	.	.	.	.	.	.	.	8d/	.	8g/	.	.	.	.	.	.	.	.	.	.	.
.	.	.	.	.	.	.	.	.	.	.	.	.	.	.	.	.	.	.	.	.	.	.	.	8B/	.	8d/	.	.	.	.	.	.	.	.	.	.	.
.	.	.	.	4g/ 4b	.	.	.	(4G/	.	.	(4B\	.	.	4g/	.	.	4b\	.	.	4GG/	.	4G/ 4B	.	8g/	.	8b/	.	.	.	.	.	.	.	.	.	.	.
.	.	.	.	.	.	.	.	.	.	.	.	.	.	.	.	.	.	.	.	.	.	.	.	8d/J)	.	8g/J)	.	.	.	.	.	.	.	.	.	.	.
=38	=38	=38	=38	=38	=38	=38	=38	=38	=38	=38	=38	=38	=38	=38	=38	=38	=38	=38	=38	=38	=38	=38	=38	=38	=38	=38	=38	=38	=38	=38	=38	=38	=38	=38	=38	=38	=38
2.ryy	2.ryy	2.ryy	2.GG/] 2.G]	2b\ 2dd	2.G\	e-	.	2B\	.	.	2d\	.	.	2b/)	.	.	2dd\)	.	.	2G\	.	2B/ 2d	.	(8b/L	.	(8dd/L	.	2.r	.	2.r	.	2.r	.	2.r	.	2.r	.
.	.	.	.	.	.	.	.	.	.	.	.	.	.	.	.	.	.	.	.	.	.	.	.	8g/	.	8b/	.	.	.	.	.	.	.	.	.	.	.
.	.	.	.	.	.	.	.	.	.	.	.	.	.	.	.	.	.	.	.	.	.	.	.	8d/	.	8g/	.	.	.	.	.	.	.	.	.	.	.
.	.	.	.	.	.	.	.	.	.	.	.	.	.	.	.	.	.	.	.	.	.	.	.	8B/	.	8d/	.	.	.	.	.	.	.	.	.	.	.
.	.	.	.	4g/ 4b	.	.	.	4G/)	.	.	4B\)	e-	.	4g/	.	.	4b\	.	.	4GG/	.	4G/ 4B	.	8g/	.	8b/	.	.	.	.	.	.	.	.	.	.	.
.	.	.	.	.	.	.	.	.	.	.	.	.	.	.	.	.	.	.	.	.	.	.	.	8d/J)	.	8g/J)	.	.	.	.	.	.	.	.	.	.	.
!!LO:PB:g=original
=39	=39	=39	=39	=39	=39	=39	=39	=39	=39	=39	=39	=39	=39	=39	=39	=39	=39	=39	=39	=39	=39	=39	=39	=39	=39	=39	=39	=39	=39	=39	=39	=39	=39	=39	=39	=39	=39
.	.	.	8qDD/	.	.	.	.	.	.	.	.	.	.	.	.	.	.	.	.	.	.	.	.	.	.	.	.	.	.	.	.	.	.	.	.	.	.
*	*	*	*	*^	*	*	*	*	*	*	*	*	*	*	*	*	*	*	*	*	*	*	*	*	*	*	*	*	*	*^	*	*^	*	*	*	*	*
2.ryy	2.ryy	2.ryy	4D\	2dd/	4f#\	(4D\	-le-	.	(4F#/	le-	.	(2d^\	-le-	.	(>4f#/	.	.	(2dd\	le-	.	(4D\	.	(4F#/ 4A	.	(8f#/L	.	(8f#/L	.	(4D\	.	2.dd/	2.dd\	.	(2dd/	4f#\	.	(4ff#\	.	(2ddd\	.
.	.	.	.	.	.	.	.	.	.	.	.	.	.	.	.	.	.	.	.	.	.	.	.	.	8d/	.	8dd/	.	.	.	.	.	.	.	.	.	.	.	.	.
.	.	.	4E\	.	4g\	4E\	.	.	4G/)	.	.	.	.	.	4g/	.	.	.	.	.	4E\	.	4G/	.	8g/	.	(8g/)	.	4E\	.	.	.	.	.	4g\	.	4gg\	.	.	.
.	.	.	.	.	.	.	.	.	.	.	.	.	.	.	.	.	.	.	.	.	.	.	.	.	8d/)	.	8dd/)	.	.	.	.	.	.	.	.	.	.	.	.	.
.	.	.	4F#\	4cc/	4d\ 4a	4F#\)	-i-	.	4A/	-i-	.	4c\)	-i-	.	4a/)	.	.	4cc\	-i-	.	4F#\)	.	4F#/) 4A	.	8a/	.	(8a/	.	4F#\	.	.	.	.	4cc/	4a\	.	4aa\)	.	4ccc\)	.
.	.	.	.	.	.	.	.	.	.	.	.	.	.	.	.	.	.	.	.	.	.	.	.	.	8d/J	.	8cc/J)	.	.	.	.	.	.	.	.	.	.	.	.	.
*	*	*	*	*	*	*	*	*	*	*	*	*	*	*	*	*	*	*	*	*	*	*	*	*	*	*	*	*	*	*	*v	*v	*	*	*	*	*	*	*	*
=40	=40	=40	=40	=40	=40	=40	=40	=40	=40	=40	=40	=40	=40	=40	=40	=40	=40	=40	=40	=40	=40	=40	=40	=40	=40	=40	=40	=40	=40	=40	=40	=40	=40	=40	=40	=40	=40	=40	=40
2.ryy	2.ryy	2.ryy	2G\	2b/	2g\	2G\	-son	.	2G/	-son	.	2B\	-son	.	2g/	.	.	2b\)	-son	.	2G\	.	[2G/	.	(8b/L	.	(8b/L	.	2G\)	.	2g/ 2dd	.	2b/)	2g\	.	2gg\	.	2bb\	.
.	.	.	.	.	.	.	.	.	.	.	.	.	.	.	.	.	.	.	.	.	.	.	.	.	8g/	.	8g/	.	.	.	.	.	.	.	.	.	.	.	.
.	.	.	.	.	.	.	.	.	.	.	.	.	.	.	.	.	.	.	.	.	.	.	.	.	8d/)	.	8d/	.	.	.	.	.	.	.	.	.	.	.	.
.	.	.	.	.	.	.	.	.	.	.	.	.	.	.	.	.	.	.	.	.	.	.	.	.	8B/J	.	8B/J)	.	.	.	.	.	.	.	.	.	.	.	.
.	.	.	8.G\L	4r	4ryy	8.G\	Ky-	.	4r	.	.	4r	.	.	4r	.	.	4r	.	.	8.G\L	.	8G/]	.	8G/	.	8G/	.	4r	.	4r	.	4r	4ryy	.	4r	.	4r	.
.	.	.	.	.	.	.	.	.	.	.	.	.	.	.	.	.	.	.	.	.	.	.	8r	.	8r	.	8r	.	.	.	.	.	.	.	.	.	.	.	.
.	.	.	16F#\Jk	.	.	16F#\	-ri-	.	.	.	.	.	.	.	.	.	.	.	.	.	16F#\Jk	.	.	.	.	.	.	.	.	.	.	.	.	.	.	.	.	.	.
*	*	*	*	*v	*v	*	*	*	*	*	*	*	*	*	*	*	*	*	*	*	*	*	*	*	*	*	*	*	*	*	*	*	*v	*v	*	*	*	*	*
=41	=41	=41	=41	=41	=41	=41	=41	=41	=41	=41	=41	=41	=41	=41	=41	=41	=41	=41	=41	=41	=41	=41	=41	=41	=41	=41	=41	=41	=41	=41	=41	=41	=41	=41	=41	=41	=41
2.ryy	2.ryy	2.ryy	2G\	4r	[2.G\	-e	.	4r	.	.	4r	.	.	4r	.	.	4r	.	.	2G\	.	4r	.	4r	.	4r	.	2.ryy	.	2.ryy	.	2.ryy	.	2.ryy	.	2.r	.
.	.	.	.	4r	.	.	.	4r	.	.	4r	.	.	4r	.	.	4r	.	.	.	.	4r	.	4r	.	4r	.	.	.	.	.	.	.	.	.	.	.
.	.	.	4GG/ 4G	8.b\L 8.dd	.	.	.	8.B\	.	.	8.d\	Ky-	.	8.b\	.	.	8.dd\	Ky-	.	4GG/	.	8.B\L 8.d	.	8.b\L	.	8.dd\L	.	.	.	.	.	.	.	.	.	.	.
.	.	.	.	16cc\Jk 16ee	.	.	.	16c\	.	.	16e\	-ri-	.	16cc\	.	.	16ee\	-ri-	.	.	.	16c\Jk 16e	.	16cc\Jk	.	16ee\Jk	.	.	.	.	.	.	.	.	.	.	.
=42	=42	=42	=42	=42	=42	=42	=42	=42	=42	=42	=42	=42	=42	=42	=42	=42	=42	=42	=42	=42	=42	=42	=42	=42	=42	=42	=42	=42	=42	=42	=42	=42	=42	=42	=42	=42	=42
2.ryy	2.ryy	2.ryy	[2.GG/ [2.G	2b\ 2dd	2.G\]	.	.	2B\	.	.	(2d\	-e	.	(>2b/	.	.	(2dd\	-e	.	2G\	.	((2B\ 2d	.	(8b/L	.	(8dd/L	.	2.ryy	.	2.ryy	.	2.ryy	.	2.ryy	.	2.r	.
.	.	.	.	.	.	.	.	.	.	.	.	.	.	.	.	.	.	.	.	.	.	.	.	8g/	.	8b/	.	.	.	.	.	.	.	.	.	.	.
.	.	.	.	.	.	.	.	.	.	.	.	.	.	.	.	.	.	.	.	.	.	.	.	8d/	.	8g/	.	.	.	.	.	.	.	.	.	.	.
.	.	.	.	.	.	.	.	.	.	.	.	.	.	.	.	.	.	.	.	.	.	.	.	8B/	.	8d/	.	.	.	.	.	.	.	.	.	.	.
.	.	.	.	4g/ 4b	.	.	.	4G/	.	.	4B\	.	.	4g/	.	.	4b\	.	.	4GG/	.	4G/)) 4B	.	8b/	.	8b/	.	.	.	.	.	.	.	.	.	.	.
.	.	.	.	.	.	.	.	.	.	.	.	.	.	.	.	.	.	.	.	.	.	.	.	8g/J)	.	8g/J)	.	.	.	.	.	.	.	.	.	.	.
=43	=43	=43	=43	=43	=43	=43	=43	=43	=43	=43	=43	=43	=43	=43	=43	=43	=43	=43	=43	=43	=43	=43	=43	=43	=43	=43	=43	=43	=43	=43	=43	=43	=43	=43	=43	=43	=43
*	*	*	*	*	*	*	*	*	*	*	*	*	*	*	*	*	*	*	*	*	*	*rep	*	*rep	*	*rep	*	*	*	*	*	*	*	*	*	*	*
2.ryy	2.ryy	2.ryy	2.GG/] 2.G]	2b\ 2dd	2.G\	e-	.	2B\	.	.	2d\)	.	.	2b/)	.	.	(2dd\)	.	.	2G\	.	((2B\ 2d	.	(8b/L	.	(8dd/L	.	2.ryy	.	2.ryy	.	2.ryy	.	2.ryy	.	2.r	.
.	.	.	.	.	.	.	.	.	.	.	.	.	.	.	.	.	.	.	.	.	.	.	.	8g/	.	8b/	.	.	.	.	.	.	.	.	.	.	.
.	.	.	.	.	.	.	.	.	.	.	.	.	.	.	.	.	.	.	.	.	.	.	.	8d/	.	8g/	.	.	.	.	.	.	.	.	.	.	.
.	.	.	.	.	.	.	.	.	.	.	.	.	.	.	.	.	.	.	.	.	.	.	.	8B/	.	8d/	.	.	.	.	.	.	.	.	.	.	.
.	.	.	.	4g/ 4b	.	.	.	4G/	.	.	4B\	e-	.	4g/	.	.	4b\)	e	.	4GG/	.	4G/)) 4B	.	8b/	.	8b/	.	.	.	.	.	.	.	.	.	.	.
.	.	.	.	.	.	.	.	.	.	.	.	.	.	.	.	.	.	.	.	.	.	.	.	8g/J)	.	8g/J)	.	.	.	.	.	.	.	.	.	.	.
*	*	*	*	*	*	*	*	*	*	*	*	*	*	*	*	*	*	*	*	*	*	*Xrep	*	*Xrep	*	*Xrep	*	*	*	*	*	*	*	*	*	*	*
!!LO:PB:g=original
=44	=44	=44	=44	=44	=44	=44	=44	=44	=44	=44	=44	=44	=44	=44	=44	=44	=44	=44	=44	=44	=44	=44	=44	=44	=44	=44	=44	=44	=44	=44	=44	=44	=44	=44	=44	=44	=44
.	.	.	(8qDD/	.	.	.	.	.	.	.	.	.	.	.	.	.	.	.	.	.	.	.	.	.	.	.	.	.	.	.	.	.	.	.	.	.	.
*	*	*	*	*^	*	*	*	*	*	*	*	*	*	*	*	*	*	*	*	*	*	*	*	*	*	*	*	*	*	*^	*	*^	*	*	*	*	*
2.ryy	2.ryy	2.ryy	4D\	2dd/	4f#\	(4D\	-le-	.	(4F#/	.	.	2d^\	-le-	.	(4f#/	.	.	2dd\	.	.	(4D\	.	(4F#/ 4A	.	(8f#/L	.	(8f#/L	.	(4D\	.	2.dd/	2.dd\	.	2dd/	4f#\	.	(4ff#\	.	(2ddd\	.
.	.	.	.	.	.	.	.	.	.	.	.	.	.	.	.	.	.	.	.	.	.	.	.	.	8d/)	.	8dd/)	.	.	.	.	.	.	.	.	.	.	.	.	.
.	.	.	4E\)	.	4g\	4E\)	.	.	4G/)	.	.	.	.	.	4g/)	.	.	.	.	.	4E\	.	4G/	.	(8g/	.	(8g/	.	4E\	.	.	.	.	.	4g\	.	4gg\	.	.	.
.	.	.	.	.	.	.	.	.	.	.	.	.	.	.	.	.	.	.	.	.	.	.	.	.	8d/)	.	8dd/)	.	.	.	.	.	.	.	.	.	.	.	.	.
.	.	.	4F#\	4cc/	4d\ 4a	4F#\	-i-	.	4A/	.	.	4c\	-i-	.	4a/	.	.	4cc\	.	.	4F#\)	.	4F#/ 4A)	.	(8a/	.	(8a/	.	4F#\)	.	.	.	.	4cc/	4a\	.	4aa\)	.	4ccc\)	.
.	.	.	.	.	.	.	.	.	.	.	.	.	.	.	.	.	.	.	.	.	.	.	.	.	8d/J)	.	8cc/J)	.	.	.	.	.	.	.	.	.	.	.	.	.
*	*	*	*	*	*	*	*	*	*	*	*	*	*	*	*	*	*	*	*	*	*	*	*	*	*	*	*	*	*	*	*v	*v	*	*	*	*	*	*	*	*
=45	=45	=45	=45	=45	=45	=45	=45	=45	=45	=45	=45	=45	=45	=45	=45	=45	=45	=45	=45	=45	=45	=45	=45	=45	=45	=45	=45	=45	=45	=45	=45	=45	=45	=45	=45	=45	=45	=45	=45
2.ryy	2.ryy	2.ryy	2G\	2d/ 2g 2b	2ryy	2G\	-son	.	2G/	.	.	2B\	-son	.	2g/	.	.	2b\	.	.	2G\	.	4G/	.	8g/	.	8b\L	.	2G\	.	2g/ 2dd	.	2b/	2g\	.	2gg\	.	2bb\	.
.	.	.	.	.	.	.	.	.	.	.	.	.	.	.	.	.	.	.	.	.	.	.	.	.	4b/	.	8gg\	.	.	.	.	.	.	.	.	.	.	.	.
.	.	.	.	.	.	.	.	.	.	.	.	.	.	.	.	.	.	.	.	.	.	.	4g\	.	.	.	8dd\	.	.	.	.	.	.	.	.	.	.	.	.
.	.	.	.	.	.	.	.	.	.	.	.	.	.	.	.	.	.	.	.	.	.	.	.	.	8g/	.	8b\J	.	.	.	.	.	.	.	.	.	.	.	.
.	.	.	4Fn\	4dd/	4a\	4Fn^\	e-	.	4A/	.	.	4d^\	e-	.	4a/	.	.	4dd^\	.	.	4Fn^\	.	4fn^\	.	4a/	.	4dd^\	.	4Fn^\	.	4r	.	4dd/	4a\	.	4aa\	.	4ddd\	.
=46	=46	=46	=46	=46	=46	=46	=46	=46	=46	=46	=46	=46	=46	=46	=46	=46	=46	=46	=46	=46	=46	=46	=46	=46	=46	=46	=46	=46	=46	=46	=46	=46	=46	=46	=46	=46	=46	=46	=46
*	*	*	*	*	*	*	*	*	*	*	*	*	*	*	*	*	*	*	*	*	*tremolo	*	*tremolo	*	*tremolo	*	*	*	*	*	*	*	*	*	*	*	*	*	*
2.ryy	2.ryy	2.ryy	2.E\	4ee/	2.g#X\	2E\	-le-	.	2G#X/	.	.	(4e\	.	.	2g#X/	.	.	(4ee\	.	.	8E\L	.	8e\L	.	8g#X/L	.	8ee\L	.	2.E\	.	2.r	.	(4ee/	2.g#X\	.	2.gg#X\	.	(4eee\	.
.	.	.	.	.	.	.	.	.	.	.	.	.	.	.	.	.	.	.	.	.	8E\	.	8e\	.	8g#/	.	8ee\	.	.	.	.	.	.	.	.	.	.	.	.
.	.	.	.	4b/	.	.	.	.	.	.	.	4B\	.	.	.	.	.	4b\	.	.	8E\	.	8e\	.	8g#/	.	8b\	.	.	.	.	.	4b/	.	.	.	.	4bb\	.
.	.	.	.	.	.	.	.	.	.	.	.	.	.	.	.	.	.	.	.	.	8E\	.	8e\	.	8g#/	.	8b\	.	.	.	.	.	.	.	.	.	.	.	.
.	.	.	.	4dd/	.	4E\	-i-	.	4G#/	.	.	4d\	.	.	4g#/	.	.	4dd\	.	.	8E\	.	8e\	.	8g#/	.	8dd\	.	.	.	.	.	4dd/	.	.	.	.	4ddd\)	.
.	.	.	.	.	.	.	.	.	.	.	.	.	.	.	.	.	.	.	.	.	8E\J	.	8e\J	.	8g#/J	.	8dd\J	.	.	.	.	.	.	.	.	.	.	.	.
=47	=47	=47	=47	=47	=47	=47	=47	=47	=47	=47	=47	=47	=47	=47	=47	=47	=47	=47	=47	=47	=47	=47	=47	=47	=47	=47	=47	=47	=47	=47	=47	=47	=47	=47	=47	=47	=47	=47	=47
2.ryy	2.ryy	2.ryy	4A\	4dd/	2.a\	(4A\	-son	.	2A\	.	.	4d\)	.	.	2a/	.	.	4dd\)	.	.	8A\L	.	8a\L	.	8a/L	.	8dd'\L	.	(4A\	.	2.r	.	4dd/	[2.a\	.	[2.aa\	.	(4ddd\	.
.	.	.	.	.	.	.	.	.	.	.	.	.	.	.	.	.	.	.	.	.	8A\J	.	8a\J	.	8a/	.	8dd'\	.	.	.	.	.	.	.	.	.	.	.	.
.	.	.	4E\	8cc/L	.	4E\	.	.	.	.	.	8c\L	-i-	.	.	.	.	8cc\L	.	.	8E\L	.	8e\L	.	8a/	.	(8cc\	.	4E\	.	.	.	8cc/L	.	.	.	.	8ccc\L	.
.	.	.	.	8b/J	.	.	.	.	.	.	.	8B\J	.	.	.	.	.	8b\J	.	.	8E\J	.	8e\J	.	8a/J	.	8b\J)	.	.	.	.	.	8b/J)	.	.	.	.	8bb\J	.
*	*	*	*	*	*	*	*	*	*	*	*	*	*	*	*	*	*	*	*	*	*Xtremolo	*	*Xtremolo	*	*Xtremolo	*	*	*	*	*	*	*	*	*	*	*	*	*	*
.	.	.	8A\L	4cc/	.	8A\L)	e-	.	4A\	.	.	4c\	-son	.	4a/	.	.	4cc\	.	.	8A\L	.	8a\L	.	4a/	.	4cc\	.	8A\L	.	.	.	4cc/	.	.	.	.	4ccc\)	.
.	.	.	8G\J	.	.	8G\J	.	.	.	.	.	.	.	.	.	.	.	.	.	.	8G\J	.	8g\J	.	.	.	.	.	8G\J)	.	.	.	.	.	.	.	.	.	.
=48	=48	=48	=48	=48	=48	=48	=48	=48	=48	=48	=48	=48	=48	=48	=48	=48	=48	=48	=48	=48	=48	=48	=48	=48	=48	=48	=48	=48	=48	=48	=48	=48	=48	=48	=48	=48	=48	=48	=48
*	*	*	*	*	*	*	*	*	*	*	*	*	*	*	*	*	*	*	*	*	*tremolo	*	*tremolo	*	*tremolo	*	*tremolo	*	*	*	*	*	*	*	*	*	*	*	*
2.ryy	2.ryy	2.ryy	2.F#\	4dd/	2.a\	2F#\	-le-	.	2A\	.	.	4d\	e-	.	2a/	.	.	(4dd\	.	.	8F#\L	.	8f#\L	.	8a/L	.	8dd\L	.	2.F#\	.	2.r	.	(4dd/	2.a\]	.	2.aa\]	.	(4ddd\	.
.	.	.	.	.	.	.	.	.	.	.	.	.	.	.	.	.	.	.	.	.	8F#\	.	8f#\	.	8a/	.	8dd\J	.	.	.	.	.	.	.	.	.	.	.	.
.	.	.	.	4a/	.	.	.	.	.	.	.	(4A\	-le-	.	.	.	.	4a/	.	.	8F#\	.	8f#\	.	8a/	.	8a/L	.	.	.	.	.	4a/	.	.	.	.	4aa\	.
.	.	.	.	.	.	.	.	.	.	.	.	.	.	.	.	.	.	.	.	.	8F#\	.	8f#\	.	8a/	.	8a/J	.	.	.	.	.	.	.	.	.	.	.	.
.	.	.	.	4cc/	.	4F#\	-i-	.	4A\	.	.	4c\	.	.	4a/	.	.	4cc\	.	.	8F#\	.	8f#\	.	8a/	.	8cc\L	.	.	.	.	.	4cc/	.	.	.	.	4ccc\)	.
.	.	.	.	.	.	.	.	.	.	.	.	.	.	.	.	.	.	.	.	.	8F#\J	.	8f#\J	.	8a/J	.	8cc\J	.	.	.	.	.	.	.	.	.	.	.	.
*	*	*	*	*	*	*	*	*	*	*	*	*	*	*	*	*	*	*	*	*	*Xtremolo	*	*Xtremolo	*	*	*	*	*	*	*	*	*	*	*	*	*	*	*	*
!!LO:PB:g=original
=49	=49	=49	=49	=49	=49	=49	=49	=49	=49	=49	=49	=49	=49	=49	=49	=49	=49	=49	=49	=49	=49	=49	=49	=49	=49	=49	=49	=49	=49	=49	=49	=49	=49	=49	=49	=49	=49	=49	=49
*	*	*	*	*	*	*	*	*	*	*	*	*	*	*	*	*	*	*	*	*	*	*	*tremolo	*	*	*	*	*	*	*	*	*	*	*	*	*	*	*	*
2.ryy	2.ryy	2.ryy	(4G\	4cc/	2.g\	(4G\	-son	.	2G/	.	.	4c\	.	.	2g/	.	.	4cc\	.	.	4G\	.	8g\L	.	8g/L	.	8cc\L	.	4G\	.	2.r	.	4cc/	2g\	.	2gg\	.	(4ccc\	.
.	.	.	.	.	.	.	.	.	.	.	.	.	.	.	.	.	.	.	.	.	.	.	8g\J	.	8g/	.	8cc\J	.	.	.	.	.	.	.	.	.	.	.	.
*	*	*	*	*	*	*	*	*	*	*	*	*	*	*	*	*	*	*	*	*	*	*	*	*	*	*	*Xtremolo	*	*	*	*	*	*	*	*	*	*	*	*
.	.	.	4D\	8b/L	.	4D\	.	.	.	.	.	8B\L)	.	.	.	.	.	8b\L)	.	.	4D\	.	8d\L	.	8g/	.	(8b\L	.	(4D\	.	.	.	8b/L	.	.	.	.	8bb\L	.
.	.	.	.	8a/J	.	.	.	.	.	.	.	8A\J	-i-	.	.	.	.	8a\J	.	.	.	.	8d\J	.	8g/J	.	8a\J)	.	.	.	.	.	8a/J	.	.	.	.	8aa\J	.
*	*	*	*	*	*	*	*	*	*	*	*	*	*	*	*	*	*	*	*	*	*	*	*Xtremolo	*	*Xtremolo	*	*	*	*	*	*	*	*	*	*	*	*	*	*
.	.	.	8G\L	4b/	.	8G\L)	e-	.	4G/	.	.	4B\	-son	.	4g/	.	.	4b\	.	.	(8G\L	.	(8g\L	.	4g/	.	4b\	.	8G\L	.	.	.	4b/)	4g\	.	4gg\	.	4bb\)	.
.	.	.	8Fn\J)	.	.	8Fn\J	.	.	.	.	.	.	.	.	.	.	.	.	.	.	8Fn\J)	.	8fn\J)	.	.	.	.	.	8Fn\J)	.	.	.	.	.	.	.	.	.	.
=50	=50	=50	=50	=50	=50	=50	=50	=50	=50	=50	=50	=50	=50	=50	=50	=50	=50	=50	=50	=50	=50	=50	=50	=50	=50	=50	=50	=50	=50	=50	=50	=50	=50	=50	=50	=50	=50	=50	=50
*	*	*	*	*	*	*	*	*	*	*	*	*	*	*	*	*	*	*	*	*	*	*	*	*	*	*	*	*	*	*	*^	*	*	*	*	*	*	*	*
*	*	*	*	*	*	*	*	*	*	*	*	*	*	*	*	*	*	*	*	*	*tremolo	*	*tremolo	*	*tremolo	*	*tremolo	*	*	*	*	*	*	*	*	*	*	*	*	*
2.ryy	2.ryy	2.ryy	2E\	2cc/	2.g\	(2E\	-le-	.	[2.G/	.	.	(2c\	e-	.	[2.g/	.	.	(2cc\	.	.	8E\L	.	8e\L	.	8g/L	.	8cc\L	.	2E\	.	2.ee/	2.cc\	.	(2cc/	[2.g\	.	[2.gg\	.	(2ccc\	.
.	.	.	.	.	.	.	.	.	.	.	.	.	.	.	.	.	.	.	.	.	8E\	.	8e\	.	8g/	.	8cc\	.	.	.	.	.	.	.	.	.	.	.	.	.
.	.	.	.	.	.	.	.	.	.	.	.	.	.	.	.	.	.	.	.	.	8E\	.	8e\	.	8g/	.	8cc\	.	.	.	.	.	.	.	.	.	.	.	.	.
.	.	.	.	.	.	.	.	.	.	.	.	.	.	.	.	.	.	.	.	.	8E\J	.	8e\J	.	8g/	.	8cc\J	.	.	.	.	.	.	.	.	.	.	.	.	.
.	.	.	4C/	4ee/	.	4C/	.	.	.	.	.	4e\	.	.	.	.	.	4ee\)	.	.	8C/L	.	8c\L	.	8g/	.	8ee\L	.	4C/	.	.	.	.	4ee/)	.	.	.	.	4eee\)	.
.	.	.	.	.	.	.	.	.	.	.	.	.	.	.	.	.	.	.	.	.	8C/J	.	8c\J	.	8g/J	.	8ee\J	.	.	.	.	.	.	.	.	.	.	.	.	.
=51	=51	=51	=51	=51	=51	=51	=51	=51	=51	=51	=51	=51	=51	=51	=51	=51	=51	=51	=51	=51	=51	=51	=51	=51	=51	=51	=51	=51	=51	=51	=51	=51	=51	=51	=51	=51	=51	=51	=51	=51
2.ryy	2.ryy	2.ryy	2D\	4b/	2g\	2D\)	.	.	2G/]	.	.	(4B\)	-le-	.	2g/]	.	.	(4b/	.	.	8D\L	.	8d\L	.	8g/L	.	8b/L	.	2D\	.	2dd/	2dd\	.	4b/	2g\]	.	2gg\]	.	(4bb\	.
.	.	.	.	.	.	.	.	.	.	.	.	.	.	.	.	.	.	.	.	.	8D\	.	8d\	.	8g/	.	8b/J	.	.	.	.	.	.	.	.	.	.	.	.	.
.	.	.	.	4a/	.	.	.	.	.	.	.	4A\	.	.	.	.	.	4a/)	.	.	8D\	.	8d\	.	8g/	.	8a/L	.	.	.	.	.	.	4a/	.	.	.	.	4aa\	.
.	.	.	.	.	.	.	.	.	.	.	.	.	.	.	.	.	.	.	.	.	8D\	.	8d\	.	8g/J	.	8a/J	.	.	.	.	.	.	.	.	.	.	.	.	.
.	.	.	4DD/ 4D	4dd/	4f#\	4D\	-i-	.	4F#/	.	.	4d\)	-i-	.	4f#/	.	.	4dd\	.	.	8D\	.	8d\	.	8f#/L	.	8dd\L	.	4D\	.	4dd/	4dd\	.	4dd/	4f#\	.	4ff#\	.	4ddd\)	.
.	.	.	.	.	.	.	.	.	.	.	.	.	.	.	.	.	.	.	.	.	8D\J	.	8d\J	.	8f#/J	.	8dd\J	.	.	.	.	.	.	.	.	.	.	.	.	.
*	*	*	*	*	*	*	*	*	*	*	*	*	*	*	*	*	*	*	*	*	*Xtremolo	*	*Xtremolo	*	*Xtremolo	*	*Xtremolo	*	*	*	*	*	*	*	*	*	*	*	*	*
*	*	*	*	*	*	*	*	*	*	*	*	*	*	*	*	*	*	*	*	*	*	*	*	*	*	*	*	*	*	*	*v	*v	*	*	*	*	*	*	*	*
=52	=52	=52	=52	=52	=52	=52	=52	=52	=52	=52	=52	=52	=52	=52	=52	=52	=52	=52	=52	=52	=52	=52	=52	=52	=52	=52	=52	=52	=52	=52	=52	=52	=52	=52	=52	=52	=52	=52	=52
2.ryy	2.ryy	2.ryy	2GG/ 2G	2b/	2g\	2G\	-son	.	2G/	.	.	2B\	-son	.	2g/	.	.	2b\	.	.	2G\	.	4G/	.	8g/	.	(8b\L	.	2G\	.	2g/ 2dd	.	2b/	2g\	.	2gg\	.	2bb\	.
.	.	.	.	.	.	.	.	.	.	.	.	.	.	.	.	.	.	.	.	.	.	.	.	.	4b/	.	8gg\	.	.	.	.	.	.	.	.	.	.	.	.
.	.	.	.	.	.	.	.	.	.	.	.	.	.	.	.	.	.	.	.	.	.	.	(4g\	.	.	.	8dd\	.	.	.	.	.	.	.	.	.	.	.	.
.	.	.	.	.	.	.	.	.	.	.	.	.	.	.	.	.	.	.	.	.	.	.	.	.	8g/	.	8b\J)	.	.	.	.	.	.	.	.	.	.	.	.
.	.	.	4FFn/ 4Fn	4dd/	4a\	4Fn^\	e-	.	4A/	.	.	4d^\	e-	.	4a/	.	.	4dd^\	.	.	4Fn\	.	4fn\)	.	4a/	.	4dd^<\	.	4Fn\	.	4r	.	4dd/	4a\	.	4aa^\	.	4ddd\	.
=53	=53	=53	=53	=53	=53	=53	=53	=53	=53	=53	=53	=53	=53	=53	=53	=53	=53	=53	=53	=53	=53	=53	=53	=53	=53	=53	=53	=53	=53	=53	=53	=53	=53	=53	=53	=53	=53	=53	=53
*	*	*	*	*	*	*	*	*	*	*	*	*	*	*	*	*	*	*	*	*	*tremolo	*	*tremolo	*	*tremolo	*	*tremolo	*	*	*	*	*	*	*	*	*	*	*	*
2.ryy	2.ryy	2.ryy	2EE/ 2E	4ee/	2.g#X\	2E\	-le-	.	2G#X/	.	.	(4e\	-le-	.	2.g#X/	.	.	(4ee\	.	.	8E\L	.	8e\L	.	8g#X/L	.	8ee\L	.	2.E\	.	2.r	.	4ee/	2.g#X\	.	2.gg#X\	.	(4eee\	.
.	.	.	.	.	.	.	.	.	.	.	.	.	.	.	.	.	.	.	.	.	8E\	.	8e\	.	8g#/	.	8ee\J	.	.	.	.	.	.	.	.	.	.	.	.
.	.	.	.	4b/	.	.	.	.	.	.	.	4B\)	.	.	.	.	.	4b\	.	.	8E\	.	8e\	.	8g#/	.	8b\L	.	.	.	.	.	4b/	.	.	.	.	4bb\	.
.	.	.	.	.	.	.	.	.	.	.	.	.	.	.	.	.	.	.	.	.	8E\	.	8e\	.	8g#/	.	8b\J	.	.	.	.	.	.	.	.	.	.	.	.
!	!	!	!	!	!	!	!	!	!	!	!	!LO:TX:t=P:problem=brak początku łuku	!	!	!	!	!	!	!	!	!	!	!	!	!	!	!	!	!	!	!	!	!	!	!	!	!	!	!
.	.	.	4E\	4dd/	.	4E\	-i-	.	4G#/	.	.	(4d\	.	.	.	.	.	4dd\	.	.	8E\	.	8e\	.	8g#/	.	8dd\L	.	.	.	.	.	4dd/	.	.	.	.	4ddd\)	.
.	.	.	.	.	.	.	.	.	.	.	.	.	.	.	.	.	.	.	.	.	8E\J	.	8e\J	.	8g#/J	.	8dd\J	.	.	.	.	.	.	.	.	.	.	.	.
*	*	*	*	*	*	*	*	*	*	*	*	*	*	*	*	*	*	*	*	*	*	*	*	*	*	*	*Xtremolo	*	*	*	*	*	*	*	*	*	*	*	*
!!LO:PB:g=original
=54	=54	=54	=54	=54	=54	=54	=54	=54	=54	=54	=54	=54	=54	=54	=54	=54	=54	=54	=54	=54	=54	=54	=54	=54	=54	=54	=54	=54	=54	=54	=54	=54	=54	=54	=54	=54	=54	=54	=54
2.ryy	2.ryy	2.ryy	4A\	(4dd/	2.a\	(4A\	-son	.	2A\	.	.	(4d\)	.	.	2a/	.	.	4dd\)	.	.	8A\L	.	8a\L	.	8a/L	.	8dd'\L	.	(4A\	.	2.r	.	(4dd/	[2.a\	.	[2.aa\	.	(4ddd\	.
.	.	.	.	.	.	.	.	.	.	.	.	.	.	.	.	.	.	.	.	.	8A\J	.	8a\J	.	8a/	.	8dd'\	.	.	.	.	.	.	.	.	.	.	.	.
.	.	.	4E\	8cc/L	.	4E\)	.	.	.	.	.	8c\L	-i-	.	.	.	.	(8cc\L	.	.	8E\L	.	8e\L	.	8a/	.	(8cc\	.	4E\	.	.	.	8cc/L	.	.	.	.	8ccc\L	.
.	.	.	.	8b/J	.	.	.	.	.	.	.	8B\J	.	.	.	.	.	8b\J)	.	.	8E\J	.	8e\J	.	8a/J	.	8b\J	.	.	.	.	.	8b/J	.	.	.	.	8bb\J	.
*	*	*	*	*	*	*	*	*	*	*	*	*	*	*	*	*	*	*	*	*	*Xtremolo	*	*Xtremolo	*	*Xtremolo	*	*	*	*	*	*	*	*	*	*	*	*	*	*
.	.	.	8A\L	4cc/)	.	(8A\L	e-	.	4A\	.	.	4c\)	-son	.	4a/	.	.	4cc\	.	.	(8A\L	.	(8a\L	.	4a/	.	4cc\)	.	8A\L	.	.	.	4cc/	.	.	.	.	4ccc\)	.
.	.	.	8G\J	.	.	8G\J)	.	.	.	.	.	.	.	.	.	.	.	.	.	.	8Gn\J)	.	8g\J)	.	.	.	.	.	8G\J)	.	.	.	.	.	.	.	.	.	.
=55	=55	=55	=55	=55	=55	=55	=55	=55	=55	=55	=55	=55	=55	=55	=55	=55	=55	=55	=55	=55	=55	=55	=55	=55	=55	=55	=55	=55	=55	=55	=55	=55	=55	=55	=55	=55	=55	=55	=55
*	*	*	*	*	*	*	*	*	*	*	*	*	*	*	*	*	*	*	*	*	*tremolo	*	*tremolo	*	*tremolo	*	*tremolo	*	*	*	*	*	*	*	*	*	*	*	*
2.ryy	2.ryy	2.ryy	2.F#\	(4dd/	2.a\	2F#\	-le-	.	2A\	.	.	4d\	e-	.	2a/	.	.	4dd\	.	.	8F#\L	.	8f#\L	.	8a/L	.	8dd\L	.	2.F#X\	.	2.r	.	4dd/)	2.a\]	.	2.aa\]	.	(4ddd\	.
.	.	.	.	.	.	.	.	.	.	.	.	.	.	.	.	.	.	.	.	.	8F#\	.	8f#\	.	8a/	.	8dd\J	.	.	.	.	.	.	.	.	.	.	.	.
.	.	.	.	4a/	.	.	.	.	.	.	.	4A\	-le-	.	.	.	.	4a\	.	.	8F#\	.	8f#\	.	8a/	.	8a/L	.	.	.	.	.	(4a/	.	.	.	.	4aa\	.
.	.	.	.	.	.	.	.	.	.	.	.	.	.	.	.	.	.	.	.	.	8F#\	.	8f#\	.	8a/	.	8a/J	.	.	.	.	.	.	.	.	.	.	.	.
.	.	.	.	4cc/	.	4F#\	-i-	.	4A\	.	.	4c\	.	.	4a/	.	.	[4cc\	.	.	8F#\	.	8f#\	.	8a/	.	8cc\L	.	.	.	.	.	4cc/	.	.	.	.	4ccc\	.
.	.	.	.	.	.	.	.	.	.	.	.	.	.	.	.	.	.	.	.	.	8F#\J	.	8f#\J	.	8a/J	.	8cc\J	.	.	.	.	.	.	.	.	.	.	.	.
*	*	*	*	*	*	*	*	*	*	*	*	*	*	*	*	*	*	*	*	*	*	*	*	*	*	*	*Xtremolo	*	*	*	*	*	*	*	*	*	*	*	*
=56	=56	=56	=56	=56	=56	=56	=56	=56	=56	=56	=56	=56	=56	=56	=56	=56	=56	=56	=56	=56	=56	=56	=56	=56	=56	=56	=56	=56	=56	=56	=56	=56	=56	=56	=56	=56	=56	=56	=56
2.ryy	2.ryy	2.ryy	4G\	4cc/)	2.g\	(4G\	-son	.	2G/	.	.	4c\	.	.	2g/	.	.	4cc\]	.	.	8G\L	.	8g\L	.	8g/L	.	8cc'\L	.	4G\	.	2.r	.	4cc/	2g\	.	2.gg\	.	4ccc\	.
.	.	.	.	.	.	.	.	.	.	.	.	.	.	.	.	.	.	.	.	.	8G\J	.	8g\J	.	8g/	.	8cc'\	.	.	.	.	.	.	.	.	.	.	.	.
.	.	.	4D\	8b/L	.	4D\)	.	.	.	.	.	(8B\L	-i-	.	.	.	.	(8b\L	.	.	8D\L	.	8d\L	.	8g/	.	(8b\	.	4D\	.	.	.	8b/L	.	.	.	.	8bb\L	.
.	.	.	.	8a/J	.	.	.	.	.	.	.	8A\J)	.	.	.	.	.	8a\J)	.	.	8D\J	.	8d\J	.	8g/J	.	8a\J)	.	.	.	.	.	8a/J	.	.	.	.	8aa\J	.
*	*	*	*	*	*	*	*	*	*	*	*	*	*	*	*	*	*	*	*	*	*Xtremolo	*	*Xtremolo	*	*Xtremolo	*	*	*	*	*	*	*	*	*	*	*	*	*	*
.	.	.	8G\L	4b/	.	(8G\L	Ky-	.	4G/	.	.	4B\	-son	.	4g/	.	.	4b\	.	.	8G\L	.	(8g\L	.	4g/	.	4b\	.	8G\L	.	.	.	4b/)	4b\	.	.	.	4bb\)	.
.	.	.	8Fn\J	.	.	8Fn\J)	.	.	.	.	.	.	.	.	.	.	.	.	.	.	8Fn\J	.	8fn\J)	.	.	.	.	.	8Fn\J	.	.	.	.	.	.	.	.	.	.
*	*	*	*	*v	*v	*	*	*	*	*	*	*	*	*	*	*	*	*	*	*	*	*	*	*	*	*	*	*	*	*	*	*	*	*	*	*	*	*	*
=57	=57	=57	=57	=57	=57	=57	=57	=57	=57	=57	=57	=57	=57	=57	=57	=57	=57	=57	=57	=57	=57	=57	=57	=57	=57	=57	=57	=57	=57	=57	=57	=57	=57	=57	=57	=57	=57	=57
*	*	*	*	*	*	*	*	*	*	*	*	*	*	*	*	*	*	*	*	*tremolo	*	*tremolo	*	*tremolo	*	*tremolo	*	*	*	*	*	*	*	*	*	*	*	*
!	!	!	!	!	!	!	!	!	!	!	!	!	!	!	!	!	!	!	!LO:HP:b	!	!	!	!LO:HP:a	!	!LO:HP:a	!	!LO:HP:a	!	!	!	!	!	!	!	!	!LO:HP:a	!	!
2.ryy	2.ryy	2.ryy	2E\	2g/ 2cc	2E\	.	.	2G/	.	.	2c\	Ky-	.	2g/	.	.	2cc\	.	<	8E\L	.	8e\L	<	8g/L	<	8cc\L	<	2E\	<	2e/ 2cc	<	2cc/	2g\	<	2gg\	<	2ccc\	.
.	.	.	.	.	.	.	.	.	.	.	.	.	.	.	.	.	.	.	.	8E\	.	8e\	.	8g/J	.	8cc\	.	.	.	.	.	.	.	.	.	.	.	.
.	.	.	.	.	.	.	.	.	.	.	.	.	.	.	.	.	.	.	.	8E\	.	8e\	.	8g/L	.	8cc\	.	.	.	.	.	.	.	.	.	.	.	.
.	.	.	.	.	.	.	.	.	.	.	.	.	.	.	.	.	.	.	.	8E\J	.	8e\J	.	8g/J	.	8cc\J	.	.	.	.	.	.	.	.	.	.	.	.
.	.	.	4D\	4g/ 4b 4dd	4D\	-ri-	.	4B\	.	.	4d\	-ri-	.	4g/	.	.	4dd\	.	[[	8D\L	.	8d\L	.	8g/L 8b	.	8dd\L	.	4D\	[[	4g/ 4dd	[[	4dd/	4b\	.	4bb\	[[	4ddd\	.
.	.	.	.	.	.	.	.	.	.	.	.	.	.	.	.	.	.	.	.	8D\J	.	8d\J	[[	8g/J 8b	[[	8dd\J	[[	.	.	.	.	.	.	.	.	.	.	.
*	*	*	*	*	*	*	*	*	*	*	*	*	*	*	*	*	*	*	*	*Xtremolo	*	*Xtremolo	*	*Xtremolo	*	*Xtremolo	*	*	*	*	*	*	*	*	*	*	*	*
=58	=58	=58	=58	=58	=58	=58	=58	=58	=58	=58	=58	=58	=58	=58	=58	=58	=58	=58	=58	=58	=58	=58	=58	=58	=58	=58	=58	=58	=58	=58	=58	=58	=58	=58	=58	=58	=58	=58
*	*	*	*	*	*	*	*	*	*	*	*	*	*	*	*	*	*	*	*	*	*	*	*	*	*	*	*	*	*	*^	*	*	*	*	*	*	*	*
!	!	!	!	!	!	!	!LO:DY:a	!	!	!LO:DY:a	!	!	!LO:DY:a	!	!	!LO:DY:a	!	!	!	!	!	!	!	!	!LO:DY:a	!	!LO:DY:a	!	!	!	!	!	!	!	!	!	!LO:DY:a	!	!
2.ryy	2.ryy	2.ryy	2C#X;/	2g;/ 2a#X 2ee	2C#X/	-e	ff	2A#X;\	.	ff	2e;\	-e	ff	2g;/	.	ff	2ee;\	.	.	2C#X;/	.	2c#X;\ 2e	ff	2g;/ 2a#X	ff	2ee;\	ff	2C#X;/	ff	2dd;/	2g\	.	2ee;/	2a#X\	[ ff	2aa#X;\	ff	2eee;\	.
!	!	!	!	!	!	!	!LO:DY:a	!	!	!LO:DY:a	!	!	!LO:DY:a	!	!	!	!	!	!LO:DY:b	!	!	!	!	!	!	!	!	!	!	!	!	!	!	!	!	!	!	!	!
.	.	.	4C#/	4g\ 4a# 4ee	4C#/	e-	p	4A#\	.	p	4e\	e-	p	4g/	.	.	4ee\	.	p	4r	.	4r	.	4r	.	4r	.	4C#/	p	4g/ 4ee	4ryy	p	4ee/	4a#\	p	4aa#\	.	4eee\	p
*	*	*	*	*	*	*	*	*	*	*	*	*	*	*	*	*	*	*	*	*	*	*	*	*	*	*	*	*	*	*	*	*	*v	*v	*	*	*	*	*
!!LO:PB:g=original
=59	=59	=59	=59	=59	=59	=59	=59	=59	=59	=59	=59	=59	=59	=59	=59	=59	=59	=59	=59	=59	=59	=59	=59	=59	=59	=59	=59	=59	=59	=59	=59	=59	=59	=59	=59	=59	=59	=59
2.ryy	2.ryy	2.ryy	[2.D\	4.g/ 4.b 4.dd	[2.D\	-le-	.	(4.B\	.	.	(4.d\	-le-	.	(>4.b/	.	.	(4.dd\	.	.	2.r	.	2.r	.	2.r	.	2.r	.	[2.D\	.	[2.dd/	2.dd\	.	(4.b/ 4.dd	.	(4.bb\	.	(4.ddd\	.
.	.	.	.	8a/ 8cc	.	.	.	8An\	.	.	8c\	.	.	8a/	.	.	8cc\	.	.	.	.	.	.	.	.	.	.	.	.	.	.	.	8a/ 8cc	.	8aa\	.	8ccc\	.
.	.	.	.	4g/ 4b	.	.	.	4G/	.	.	4B\	.	.	4g/	.	.	4b\	.	.	.	.	.	.	.	.	.	.	.	.	.	.	.	4g/ 4b	.	4gg\)	.	4bb\	.
=60	=60	=60	=60	=60	=60	=60	=60	=60	=60	=60	=60	=60	=60	=60	=60	=60	=60	=60	=60	=60	=60	=60	=60	=60	=60	=60	=60	=60	=60	=60	=60	=60	=60	=60	=60	=60	=60	=60
*	*	*	*	*	*	*	*	*	*	*	*	*	*	*	*	*	*	*	*	*	*	*	*	*	*	*	*	*	*	*	*	*	*^	*	*	*	*	*
2.ryy	2.ryy	2.ryy	2.D\]	2b\ 2gg	2.D\_	.	.	2B\	.	.	2g\	.	.	2b/	.	.	2gg\	.	.	2.r	.	2.r	.	2.r	.	2.r	.	2.D\]	.	2.dd/]	2.dd\	.	2dd/	2b\	.	(2bb\	.	2ggg\	.
.	.	.	.	4g/ 4b	.	.	.	4G/	.	.	4B\	.	.	4g/)	.	.	4b\	.	.	.	.	.	.	.	.	.	.	.	.	.	.	.	4b/)	4g\	.	4gg\)	.	4bb\)	.
=61	=61	=61	=61	=61	=61	=61	=61	=61	=61	=61	=61	=61	=61	=61	=61	=61	=61	=61	=61	=61	=61	=61	=61	=61	=61	=61	=61	=61	=61	=61	=61	=61	=61	=61	=61	=61	=61	=61	=61
*	*	*	*	*^	*	*	*	*	*	*	*	*	*	*	*	*	*	*	*	*	*	*	*	*	*	*	*	*	*	*	*	*	*	*	*	*	*	*	*
2.ryy	2.ryy	2.ryy	[2.DD/ [2.D	2.a/	2.g\	2.D\_	.	.	(2.G/)	.	.	[2.A\)	.	.	(2.g/	.	.	[2.a/)	.	.	2.r	.	2.r	.	2.r	.	2.r	.	[2.D\	.	[2.dd/	2.dd\	.	2.a/	2.g\	.	(2.gg\	.	[2.aa\	.
=62	=62	=62	=62	=62	=62	=62	=62	=62	=62	=62	=62	=62	=62	=62	=62	=62	=62	=62	=62	=62	=62	=62	=62	=62	=62	=62	=62	=62	=62	=62	=62	=62	=62	=62	=62	=62	=62	=62	=62	=62
2.ryy	2.ryy	2.ryy	2.DD/] 2.D]	2a/	4g\	2D\]	.	.	4G/	.	.	2A\]	.	.	4g/	.	.	2a/]	.	.	2.r	.	2.r	.	2.r	.	2.r	.	2.D\]	.	2.dd/]	2.dd\	.	2a/	4g\	.	4gg\	.	2aa\]	.
.	.	.	.	.	8f#\L	.	.	.	8F#/L	.	.	.	.	.	8f#/L	.	.	.	.	.	.	.	.	.	.	.	.	.	.	.	.	.	.	.	8f#\L	.	8ff#\L	.	.	.
.	.	.	.	.	8e\J	.	.	.	8E/J)	.	.	.	.	.	8e/J	.	.	.	.	.	.	.	.	.	.	.	.	.	.	.	.	.	.	.	8e\J	.	8ee\J	.	.	.
.	.	.	.	4dd/	4f#\	4D\	-i-	.	4F#/	.	.	4d\	-i-	.	4f#/)	.	.	4dd\	.	.	.	.	.	.	.	.	.	.	.	.	.	.	.	4dd/	4f#\	.	4ff#\)	.	4ddd\	.
*	*	*	*	*v	*v	*	*	*	*	*	*	*	*	*	*	*	*	*	*	*	*	*	*	*	*	*	*	*	*	*	*v	*v	*	*	*	*	*	*	*	*
=63	=63	=63	=63	=63	=63	=63	=63	=63	=63	=63	=63	=63	=63	=63	=63	=63	=63	=63	=63	=63	=63	=63	=63	=63	=63	=63	=63	=63	=63	=63	=63	=63	=63	=63	=63	=63	=63	=63
!	!	!	!	!	!	!	!	!	!	!	!	!	!	!	!	!	!	!	!	!LO:TX:a:t=P:mixedbeam:problem	!	!	!	!LO:TX:a:t=Unis	!	!	!	!	!	!	!	!	!	!	!	!	!	!
2.ryy	2.ryy	2.ryy	[>2.GG/ [2.G	[2.g/	[2.G\	-son.	.	[2.G/	.	.	[2.G/	-son.	.	[2.g/	.	.	[2.g/	.	.	8GG'/L	.	8g'\L	.	8g'/Lyy	.	8g'/L	.	2.G\	.	[2.g/	.	[2.g/	2.g\	.	[2.gg\	.	[2.gg\	.
.	.	.	.	.	.	.	.	.	.	.	.	.	.	.	.	.	.	.	.	8G'\	.	8g'\	.	8g'/yy	.	8g'/	.	.	.	.	.	.	.	.	.	.	.	.
.	.	.	.	.	.	.	.	.	.	.	.	.	.	.	.	.	.	.	.	(8F#\	.	(8f#\	.	(<8f#/yy	.	(<8f#/	.	.	.	.	.	.	.	.	.	.	.	.
.	.	.	.	.	.	.	.	.	.	.	.	.	.	.	.	.	.	.	.	8G\	.	8g\	.	8g/yy	.	8g/	.	.	.	.	.	.	.	.	.	.	.	.
.	.	.	.	.	.	.	.	.	.	.	.	.	.	.	.	.	.	.	.	8D\	.	8d\	.	8b/yy	.	8b/	.	.	.	.	.	.	.	.	.	.	.	.
.	.	.	.	.	.	.	.	.	.	.	.	.	.	.	.	.	.	.	.	8BB\J)	.	8B\J)	.	8dd/Jyy	.	8dd/J	.	.	.	.	.	.	.	.	.	.	.	.
=64	=64	=64	=64	=64	=64	=64	=64	=64	=64	=64	=64	=64	=64	=64	=64	=64	=64	=64	=64	=64	=64	=64	=64	=64	=64	=64	=64	=64	=64	=64	=64	=64	=64	=64	=64	=64	=64	=64
*	*	*	*	*	*	*	*	*	*	*	*	*	*	*	*	*	*	*	*	*	*	*	*	*2\right	*	*	*	*	*	*	*	*	*	*	*	*	*	*
2.ryy	2.ryy	2.ryy	2GG/] 2G]	2g/]	2G\]	.	.	2G/]	.	.	2G/]	.	.	2g/]	.	.	2g/]	.	.	2.GG/	.	2.G/	.	2gg\yy)	.	2gg\)	.	2G\	.	2g/]	.	2g/]	2g\	.	2gg\]	.	2gg\]	.
=||	=||	=||	=||	=||	=||	=||	=||	=||	=||	=||	=||	=||	=||	=||	=||	=||	=||	=||	=||	=||	=||	=||	=||	=||	=||	=||	=||	=||	=||	=||	=||	=||	=||	=||	=||	=||	=||	=||
.	.	.	4GG\ 4G\	4d/ 4fn/ 4g/ 4b/	4ryy	.	.	4ryy	.	.	4ryy	.	.	4ryy	.	.	4ryy	.	.	.	.	.	.	4ryy	.	4ryy	.	4ryy	.	4ryy	.	4ryy	4ryy	.	4ryy	.	4ryy	.
*	*	*	*	*	*	*	*	*	*	*	*	*	*	*	*	*	*	*	*	*	*	*	*	*	*	*	*	*	*	*	*	*v	*v	*	*	*	*	*
==	==	==	==	==	==	==	==	==	==	==	==	==	==	==	==	==	==	==	==	==	==	==	==	==	==	==	==	==	==	==	==	==	==	==	==	==	==
*-	*-	*-	*-	*-	*-	*-	*-	*-	*-	*-	*-	*-	*-	*-	*-	*-	*-	*-	*-	*-	*-	*-	*-	*-	*-	*-	*-	*-	*-	*-	*-	*-	*-	*-	*-	*-	*-
!!!system-decoration: [(s1,s2,s3,s4,s5)][(g1,s8,s9)][(s10,s11)][(g2,s14)]{(s15,s16)}[(s17,s18,s19)]
!!!RDF**kern: < = below
!!!RDF**kern: > = above
!!!ENC: Marta Chmielewska
!!!END: 2021-05-13
!!!ENC: Berenika Jozajtis
!!!END: 2021-04-07
